YihengPan-code/Urban-Analytics-Portfolio/06-openheat_grid/outputs/v12_systemb_target_freeze/n24_modifier_targets_b5_method_check.csv
cell_id,hour_sgt,scenario,reference_domain_version,target_version,tmrt_mean_c,tmrt_p50_c,tmrt_p75_c,tmrt_p90_c,tmrt_p95_c,tmrt_max_c,pct_pixels_tmrt_ge_40,pct_pixels_tmrt_ge_45,pct_pixels_tmrt_ge_50,pct_pixels_tmrt_ge_55,tmrt_ref_p90_c,delta_tmrt_p90_c,m_rad_pct01,target_quality_flag,source,raw_solweig_available,notes,m_rad_pct_provisional_legacy,m_rad_pct01_minus_legacy
TP_0037,10,base,n24_internal_b3,systemb_target_family_v0_1_b5,39.52685546875,42.65448760986328,44.46598052978516,46.506309509277344,46.53591537475586,46.57469177246094,54.8,22.0,0.0,0.0,44.96133995056152,1.5449695587158203,0.9565217391304348,ok,provisional_n24,True,N24-internal B5 method check only; not final AOI-wide modifier,0.9583333333333334,-0.0018115942028985588
TP_0037,12,base,n24_internal_b3,systemb_target_family_v0_1_b5,53.81845474243164,60.58280944824219,61.796531677246094,62.27238082885742,62.30147933959961,62.31979751586914,73.8,68.0,67.84,67.84,61.5889892578125,0.6833915710449219,0.9130434782608695,ok,provisional_n24,True,N24-internal B5 method check only; not final AOI-wide modifier,0.9166666666666666,-0.0036231884057971175
TP_0037,13,base,n24_internal_b3,systemb_target_family_v0_1_b5,54.51276397705078,59.69611358642578,60.81851577758789,62.51641082763672,62.54996109008789,62.57920837402344,78.8,73.2,73.11999999999999,72.84,61.46331977844238,1.053091049194336,0.9130434782608695,ok,provisional_n24,True,N24-internal B5 method check only; not final AOI-wide modifier,0.9166666666666666,-0.0036231884057971175
TP_0037,15,base,n24_internal_b3,systemb_target_family_v0_1_b5,47.56985092163086,40.82197189331055,57.98145294189453,60.72555160522461,60.75756072998047,60.80853271484375,51.92,46.0,46.0,41.28,59.42742729187012,1.2981243133544922,0.9565217391304348,ok,provisional_n24,True,N24-internal B5 method check only; not final AOI-wide modifier,0.9583333333333334,-0.0018115942028985588
TP_0037,16,base,n24_internal_b3,systemb_target_family_v0_1_b5,41.15784454345703,36.70075225830078,48.72393035888672,51.73152160644531,51.76597213745117,51.81732177734375,38.48,37.8,22.92,0.0,50.2655029296875,1.4660186767578125,0.9565217391304348,ok,provisional_n24,True,N24-internal B5 method check only; not final AOI-wide modifier,0.9583333333333334,-0.0018115942028985588
TP_0037,10,overhead_as_canopy,n24_internal_b3,systemb_target_family_v0_1_b5,36.68032836914063,33.450233459472656,43.04587936401367,44.148170471191406,44.36546325683594,45.45430374145508,33.4,0.32,0.0,0.0,44.16713523864746,-0.018964767456054688,0.4782608695652174,ok,provisional_n24,True,N24-internal B5 method check only; not final AOI-wide modifier,0.5,-0.021739130434782594
TP_0037,12,overhead_as_canopy,n24_internal_b3,systemb_target_family_v0_1_b5,48.12201690673828,40.37653350830078,60.997520446777344,61.5823974609375,61.7863883972168,62.18844604492188,51.48,45.56,45.4,45.4,60.94166564941406,0.6407318115234375,0.6521739130434783,ok,provisional_n24,True,N24-internal B5 method check only; not final AOI-wide modifier,0.6666666666666666,-0.01449275362318836
TP_0037,13,overhead_as_canopy,n24_internal_b3,systemb_target_family_v0_1_b5,48.9164924621582,55.79290008544922,60.13227844238281,60.607398986816406,60.7894401550293,61.602298736572266,56.92,51.16,51.04,50.8,60.61849594116211,-0.011096954345703125,0.4782608695652174,ok,provisional_n24,True,N24-internal B5 method check only; not final AOI-wide modifier,0.5,-0.021739130434782594
TP_0037,15,overhead_as_canopy,n24_internal_b3,systemb_target_family_v0_1_b5,42.47830581665039,38.71324157714844,51.92868423461914,56.638301849365234,57.8499641418457,59.78483581542969,31.6,25.32,25.32,20.6,57.903303146362305,-1.2650012969970703,0.43478260869565216,ok,provisional_n24,True,N24-internal B5 method check only; not final AOI-wide modifier,0.4583333333333333,-0.023550724637681153
TP_0037,16,overhead_as_canopy,n24_internal_b3,systemb_target_family_v0_1_b5,37.77617645263672,35.685211181640625,37.07508850097656,47.29628753662109,48.68126678466797,50.71839904785156,19.16,18.48,1.96,0.0,48.777780532836914,-1.4814929962158274,0.391304347826087,ok,provisional_n24,True,N24-internal B5 method check only; not final AOI-wide modifier,0.4166666666666667,-0.025362318840579712
TP_0059,10,base,n24_internal_b3,systemb_target_family_v0_1_b5,45.32170486450195,46.09529113769531,46.1701545715332,46.24119186401367,46.29170227050781,46.46051788330078,92.28,90.64,0.0,0.0,44.96133995056152,1.2798519134521484,0.8260869565217391,ok,provisional_n24,True,N24-internal B5 method check only; not final AOI-wide modifier,0.8333333333333334,-0.007246376811594235
TP_0059,12,base,n24_internal_b3,systemb_target_family_v0_1_b5,62.01827621459961,62.031517028808594,62.06294631958008,62.11625671386719,62.14785385131836,62.24058151245117,100.0,100.0,100.0,100.0,61.5889892578125,0.5272674560546875,0.8260869565217391,ok,provisional_n24,True,N24-internal B5 method check only; not final AOI-wide modifier,0.8333333333333334,-0.007246376811594235
TP_0059,13,base,n24_internal_b3,systemb_target_family_v0_1_b5,62.16756439208984,62.18168640136719,62.22831726074219,62.30513381958008,62.34062194824219,62.47140121459961,100.0,100.0,100.0,100.0,61.46331977844238,0.8418140411376953,0.8260869565217391,ok,provisional_n24,True,N24-internal B5 method check only; not final AOI-wide modifier,0.8333333333333334,-0.007246376811594235
TP_0059,15,base,n24_internal_b3,systemb_target_family_v0_1_b5,60.39198684692383,60.4024772644043,60.45685577392578,60.49889373779297,60.533164978027344,60.66500473022461,100.0,100.0,100.0,100.0,59.42742729187012,1.0714664459228516,0.8260869565217391,ok,provisional_n24,True,N24-internal B5 method check only; not final AOI-wide modifier,0.8333333333333334,-0.007246376811594235
TP_0059,16,base,n24_internal_b3,systemb_target_family_v0_1_b5,51.373085021972656,51.38343811035156,51.44404602050781,51.49138641357422,51.5242805480957,51.673828125,100.0,100.0,100.0,0.0,50.2655029296875,1.2258834838867188,0.8260869565217391,ok,provisional_n24,True,N24-internal B5 method check only; not final AOI-wide modifier,0.8333333333333334,-0.007246376811594235
TP_0059,10,overhead_as_canopy,n24_internal_b3,systemb_target_family_v0_1_b5,43.94067001342773,45.81299591064453,46.036502838134766,46.10290145874024,46.14707946777344,46.388519287109375,84.48,70.04,0.0,0.0,44.16713523864746,1.9357662200927805,0.8695652173913043,ok,provisional_n24,True,N24-internal B5 method check only; not final AOI-wide modifier,0.875,-0.005434782608695676
TP_0059,12,overhead_as_canopy,n24_internal_b3,systemb_target_family_v0_1_b5,59.59553146362305,61.882286071777344,61.99455642700195,62.03409957885742,62.061710357666016,62.24058151245117,93.8,91.24,91.24,91.24,60.94166564941406,1.0924339294433594,0.8695652173913043,ok,provisional_n24,True,N24-internal B5 method check only; not final AOI-wide modifier,0.875,-0.005434782608695676
TP_0059,13,overhead_as_canopy,n24_internal_b3,systemb_target_family_v0_1_b5,59.384613037109375,61.9882698059082,62.13233184814453,62.186431884765625,62.225547790527344,62.44775390625,93.2,89.88000000000001,89.88000000000001,89.88000000000001,60.61849594116211,1.5679359436035156,0.8695652173913043,ok,provisional_n24,True,N24-internal B5 method check only; not final AOI-wide modifier,0.875,-0.005434782608695676
TP_0059,15,overhead_as_canopy,n24_internal_b3,systemb_target_family_v0_1_b5,57.17896270751953,60.14981460571289,60.30768585205078,60.37520217895508,60.41146087646485,60.60914611816406,91.08,87.56,87.56,87.48,57.903303146362305,2.4718990325927734,0.8695652173913043,ok,provisional_n24,True,N24-internal B5 method check only; not final AOI-wide modifier,0.875,-0.005434782608695676
TP_0059,16,overhead_as_canopy,n24_internal_b3,systemb_target_family_v0_1_b5,48.92706298828125,51.123008728027344,51.28461456298828,51.35029220581055,51.38975524902344,51.60088348388672,86.72,86.72,77.52,0.0,48.777780532836914,2.572511672973633,0.8695652173913043,ok,provisional_n24,True,N24-internal B5 method check only; not final AOI-wide modifier,0.875,-0.005434782608695676
TP_0088,10,base,n24_internal_b3,systemb_target_family_v0_1_b5,45.92864990234375,45.96696853637695,46.05084609985352,46.11372375488281,46.13212203979492,46.20726776123047,100.0,99.6,0.0,0.0,44.96133995056152,1.152383804321289,0.782608695652174,ok,provisional_n24,True,N24-internal B5 method check only; not final AOI-wide modifier,0.7916666666666666,-0.009057971014492683
TP_0088,12,base,n24_internal_b3,systemb_target_family_v0_1_b5,61.94522476196289,61.973182678222656,62.03030014038086,62.06162643432617,62.07427597045898,62.14235305786133,100.0,100.0,100.0,100.0,61.5889892578125,0.4726371765136719,0.782608695652174,ok,provisional_n24,True,N24-internal B5 method check only; not final AOI-wide modifier,0.7916666666666666,-0.009057971014492683
TP_0088,13,base,n24_internal_b3,systemb_target_family_v0_1_b5,62.0717887878418,62.10771179199219,62.18822860717773,62.230098724365234,62.2422981262207,62.3037109375,100.0,99.96,99.96,99.96,61.46331977844238,0.7667789459228516,0.782608695652174,ok,provisional_n24,True,N24-internal B5 method check only; not final AOI-wide modifier,0.7916666666666666,-0.009057971014492683
TP_0088,15,base,n24_internal_b3,systemb_target_family_v0_1_b5,60.16714859008789,60.23445892333984,60.31951522827149,60.39202499389648,60.41196823120117,60.47309875488281,100.0,99.88,99.88,99.88,59.42742729187012,0.9645977020263601,0.782608695652174,ok,provisional_n24,True,N24-internal B5 method check only; not final AOI-wide modifier,0.7916666666666666,-0.009057971014492683
TP_0088,16,base,n24_internal_b3,systemb_target_family_v0_1_b5,51.13069915771485,51.19538879394531,51.28325653076172,51.36267852783203,51.38597869873047,51.45397567749024,99.96,99.8,99.28,0.0,50.2655029296875,1.0971755981445312,0.782608695652174,ok,provisional_n24,True,N24-internal B5 method check only; not final AOI-wide modifier,0.7916666666666666,-0.009057971014492683
TP_0088,10,overhead_as_canopy,n24_internal_b3,systemb_target_family_v0_1_b5,36.95838165283203,33.94728088378906,42.57065963745117,44.504764556884766,44.97483444213867,45.69082260131836,33.84,4.8,0.0,0.0,44.16713523864746,0.3376293182373047,0.5652173913043478,ok,provisional_n24,True,N24-internal B5 method check only; not final AOI-wide modifier,0.5833333333333334,-0.018115942028985588
TP_0088,12,overhead_as_canopy,n24_internal_b3,systemb_target_family_v0_1_b5,45.49380493164063,39.47651290893555,58.24211120605469,60.5472526550293,61.14741516113281,61.74421310424805,43.84,35.2,35.2,35.160000000000004,60.94166564941406,-0.3944129943847656,0.4782608695652174,ok,provisional_n24,True,N24-internal B5 method check only; not final AOI-wide modifier,0.5,-0.021739130434782594
TP_0088,13,overhead_as_canopy,n24_internal_b3,systemb_target_family_v0_1_b5,45.04721450805664,39.356842041015625,57.33766555786133,60.34730911254883,61.06288909912109,61.79562759399414,43.04,33.32,33.32,28.6,60.61849594116211,-0.27118682861328125,0.43478260869565216,ok,provisional_n24,True,N24-internal B5 method check only; not final AOI-wide modifier,0.4583333333333333,-0.023550724637681153
TP_0088,15,overhead_as_canopy,n24_internal_b3,systemb_target_family_v0_1_b5,42.90199661254883,37.51646423339844,53.55638885498047,58.04494094848633,58.932918548583984,59.81678009033203,33.2,29.96,29.68,22.28,57.903303146362305,0.14163780212402344,0.5217391304347826,ok,provisional_n24,True,N24-internal B5 method check only; not final AOI-wide modifier,0.5416666666666666,-0.019927536231884035
TP_0088,16,overhead_as_canopy,n24_internal_b3,systemb_target_family_v0_1_b5,38.448829650878906,35.046043395996094,44.19587326049805,49.0619010925293,49.91636276245117,50.77604293823242,25.44,24.24,4.2,0.0,48.777780532836914,0.2841205596923828,0.5652173913043478,ok,provisional_n24,True,N24-internal B5 method check only; not final AOI-wide modifier,0.5833333333333334,-0.018115942028985588
TP_0098,10,base,n24_internal_b3,systemb_target_family_v0_1_b5,39.59673690795898,42.79449844360352,44.48571395874024,45.04518508911133,45.29625701904297,46.379371643066406,59.0,11.36,0.0,0.0,44.96133995056152,0.08384513854980469,0.5217391304347826,ok,provisional_n24,True,N24-internal B5 method check only; not final AOI-wide modifier,0.5416666666666666,-0.019927536231884035
TP_0098,12,base,n24_internal_b3,systemb_target_family_v0_1_b5,51.98918914794922,59.264556884765625,61.362300872802734,61.71682357788086,61.85432434082031,62.37800979614258,67.56,63.16,63.04,63.0,61.5889892578125,0.12783432006835938,0.5217391304347826,ok,provisional_n24,True,N24-internal B5 method check only; not final AOI-wide modifier,0.5416666666666666,-0.019927536231884035
TP_0098,13,base,n24_internal_b3,systemb_target_family_v0_1_b5,51.41692352294922,58.34382247924805,60.89836120605469,61.5404167175293,61.69535446166992,62.38816833496094,66.92,61.92,61.84,61.16,61.46331977844238,0.07709693908691406,0.5217391304347826,ok,provisional_n24,True,N24-internal B5 method check only; not final AOI-wide modifier,0.5416666666666666,-0.019927536231884035
TP_0098,15,base,n24_internal_b3,systemb_target_family_v0_1_b5,48.53771209716797,54.77654647827149,58.01948547363281,59.43244552612305,59.67424774169922,60.54887771606445,61.52,55.88,55.88,48.56,59.42742729187012,0.0050182342529296875,0.5217391304347826,ok,provisional_n24,True,N24-internal B5 method check only; not final AOI-wide modifier,0.5416666666666666,-0.019927536231884035
TP_0098,16,base,n24_internal_b3,systemb_target_family_v0_1_b5,42.00628662109375,43.15571594238281,48.788665771484375,50.27732849121094,50.54590225219727,51.56306457519531,50.080000000000005,49.6,14.32,0.0,50.2655029296875,0.0118255615234375,0.5217391304347826,ok,provisional_n24,True,N24-internal B5 method check only; not final AOI-wide modifier,0.5416666666666666,-0.019927536231884035
TP_0098,10,overhead_as_canopy,n24_internal_b3,systemb_target_family_v0_1_b5,39.13882064819336,42.34687042236328,43.84464263916016,45.00008773803711,45.29625701904297,46.379371643066406,55.44,10.0,0.0,0.0,44.16713523864746,0.8329524993896484,0.6521739130434783,ok,provisional_n24,True,N24-internal B5 method check only; not final AOI-wide modifier,0.6666666666666666,-0.01449275362318836
TP_0098,12,overhead_as_canopy,n24_internal_b3,systemb_target_family_v0_1_b5,51.3526611328125,58.91180419921875,60.98160552978516,61.57076644897461,61.71425247192383,62.25220489501953,66.24,60.68,60.56,60.52,60.94166564941406,0.6291007995605469,0.6086956521739131,ok,provisional_n24,True,N24-internal B5 method check only; not final AOI-wide modifier,0.625,-0.016304347826086918
TP_0098,13,overhead_as_canopy,n24_internal_b3,systemb_target_family_v0_1_b5,50.94858932495117,58.05482482910156,60.33467864990234,61.50395202636719,61.69527053833008,62.38816833496094,65.92,60.36,60.28,59.6,60.61849594116211,0.8854560852050781,0.6521739130434783,ok,provisional_n24,True,N24-internal B5 method check only; not final AOI-wide modifier,0.6666666666666666,-0.01449275362318836
TP_0098,15,overhead_as_canopy,n24_internal_b3,systemb_target_family_v0_1_b5,48.04864883422852,54.144142150878906,57.31013870239258,59.43244552612305,59.67424774169922,60.54887771606445,59.96,54.32,54.32,45.6,57.903303146362305,1.5291423797607422,0.6521739130434783,ok,provisional_n24,True,N24-internal B5 method check only; not final AOI-wide modifier,0.6666666666666666,-0.01449275362318836
TP_0098,16,overhead_as_canopy,n24_internal_b3,systemb_target_family_v0_1_b5,41.669898986816406,38.09894561767578,48.00065612792969,50.27732849121094,50.54590225219727,51.56306457519531,48.76,47.48,14.32,0.0,48.777780532836914,1.4995479583740234,0.6521739130434783,ok,provisional_n24,True,N24-internal B5 method check only; not final AOI-wide modifier,0.6666666666666666,-0.01449275362318836
TP_0115,10,base,n24_internal_b3,systemb_target_family_v0_1_b5,40.12460708618164,42.95508193969727,44.433326721191406,45.53010940551758,46.088829040527344,46.5737533569336,60.88,16.400000000000002,0.0,0.0,44.96133995056152,0.5687694549560547,0.5652173913043478,ok,provisional_n24,True,N24-internal B5 method check only; not final AOI-wide modifier,0.5833333333333334,-0.018115942028985588
TP_0115,12,base,n24_internal_b3,systemb_target_family_v0_1_b5,54.574989318847656,59.86699676513672,60.99709701538086,61.83406829833984,62.05429458618164,62.31951522827149,83.24000000000001,72.32,72.32,72.32,61.5889892578125,0.24507904052733664,0.6521739130434783,ok,provisional_n24,True,N24-internal B5 method check only; not final AOI-wide modifier,0.6666666666666666,-0.01449275362318836
TP_0115,13,base,n24_internal_b3,systemb_target_family_v0_1_b5,54.38801193237305,59.30221176147461,60.72686004638672,61.71916580200195,62.16797256469727,62.57856369018555,84.16,72.56,72.56,72.56,61.46331977844238,0.2558460235595703,0.5652173913043478,ok,provisional_n24,True,N24-internal B5 method check only; not final AOI-wide modifier,0.5833333333333334,-0.018115942028985588
TP_0115,15,base,n24_internal_b3,systemb_target_family_v0_1_b5,51.66128921508789,56.60070037841797,58.37639617919922,59.57823944091797,60.21656799316406,60.79265213012695,76.8,68.32000000000001,68.24,62.08,59.42742729187012,0.15081214904785156,0.5652173913043478,ok,provisional_n24,True,N24-internal B5 method check only; not final AOI-wide modifier,0.5833333333333334,-0.018115942028985588
TP_0115,16,base,n24_internal_b3,systemb_target_family_v0_1_b5,44.219017028808594,47.483131408691406,49.28941345214844,50.51443099975586,51.18495941162109,51.80408477783203,63.72,62.52,15.68,0.0,50.2655029296875,0.24892807006835938,0.5652173913043478,ok,provisional_n24,True,N24-internal B5 method check only; not final AOI-wide modifier,0.5833333333333334,-0.018115942028985588
TP_0115,10,overhead_as_canopy,n24_internal_b3,systemb_target_family_v0_1_b5,40.12460708618164,42.95508193969727,44.433326721191406,45.53010940551758,46.088829040527344,46.5737533569336,60.88,16.400000000000002,0.0,0.0,44.16713523864746,1.3629741668701172,0.7391304347826086,ok,provisional_n24,True,N24-internal B5 method check only; not final AOI-wide modifier,0.75,-0.010869565217391353
TP_0115,12,overhead_as_canopy,n24_internal_b3,systemb_target_family_v0_1_b5,54.574989318847656,59.86699676513672,60.99709701538086,61.83406829833984,62.05429458618164,62.31951522827149,83.24000000000001,72.32,72.32,72.32,60.94166564941406,0.8924026489257741,0.782608695652174,ok,provisional_n24,True,N24-internal B5 method check only; not final AOI-wide modifier,0.7916666666666666,-0.009057971014492683
TP_0115,13,overhead_as_canopy,n24_internal_b3,systemb_target_family_v0_1_b5,54.38801193237305,59.30221176147461,60.72686004638672,61.71916580200195,62.16797256469727,62.57856369018555,84.16,72.56,72.56,72.56,60.61849594116211,1.1006698608398438,0.7391304347826086,ok,provisional_n24,True,N24-internal B5 method check only; not final AOI-wide modifier,0.75,-0.010869565217391353
TP_0115,15,overhead_as_canopy,n24_internal_b3,systemb_target_family_v0_1_b5,51.66128921508789,56.60070037841797,58.37639617919922,59.57823944091797,60.21656799316406,60.79265213012695,76.8,68.32000000000001,68.24,62.08,57.903303146362305,1.674936294555664,0.6956521739130435,ok,provisional_n24,True,N24-internal B5 method check only; not final AOI-wide modifier,0.7083333333333334,-0.012681159420289911
TP_0115,16,overhead_as_canopy,n24_internal_b3,systemb_target_family_v0_1_b5,44.219017028808594,47.483131408691406,49.28941345214844,50.51443099975586,51.18495941162109,51.80408477783203,63.72,62.52,15.68,0.0,48.777780532836914,1.7366504669189453,0.6956521739130435,ok,provisional_n24,True,N24-internal B5 method check only; not final AOI-wide modifier,0.7083333333333334,-0.012681159420289911
TP_0141,10,base,n24_internal_b3,systemb_target_family_v0_1_b5,34.622074127197266,33.12060546875,33.53565979003906,43.06124114990234,43.81765365600586,45.12124252319336,15.32,0.2,0.0,0.0,44.96133995056152,-1.9000988006591868,0.34782608695652173,ok,provisional_n24,True,N24-internal B5 method check only; not final AOI-wide modifier,0.375,-0.02717391304347827
TP_0141,12,base,n24_internal_b3,systemb_target_family_v0_1_b5,40.18996810913086,36.89188766479492,38.25199508666992,58.77106857299805,60.21200180053711,61.47864532470703,17.4,15.72,15.72,15.72,61.5889892578125,-2.817920684814453,0.30434782608695654,ok,provisional_n24,True,N24-internal B5 method check only; not final AOI-wide modifier,0.3333333333333333,-0.028985507246376774
TP_0141,13,base,n24_internal_b3,systemb_target_family_v0_1_b5,39.84480285644531,36.90465545654297,38.26747512817383,57.49839782714844,59.3965950012207,61.03553009033203,16.56,14.24,14.24,13.28,61.46331977844238,-3.9649219512939453,0.30434782608695654,ok,provisional_n24,True,N24-internal B5 method check only; not final AOI-wide modifier,0.3333333333333333,-0.028985507246376774
TP_0141,15,base,n24_internal_b3,systemb_target_family_v0_1_b5,38.76105880737305,36.17094039916992,37.11541748046875,54.312007904052734,56.40379333496094,58.63405227661133,14.760000000000002,13.6,13.6,8.799999999999999,59.42742729187012,-5.115419387817383,0.30434782608695654,ok,provisional_n24,True,N24-internal B5 method check only; not final AOI-wide modifier,0.3333333333333333,-0.028985507246376774
TP_0141,16,base,n24_internal_b3,systemb_target_family_v0_1_b5,35.87596893310547,34.398345947265625,34.886009216308594,45.20431137084961,47.46711349487305,49.51350784301758,10.8,10.28,0.0,0.0,50.2655029296875,-5.061191558837891,0.2608695652173913,ok,provisional_n24,True,N24-internal B5 method check only; not final AOI-wide modifier,0.2916666666666667,-0.030797101449275388
TP_0141,10,overhead_as_canopy,n24_internal_b3,systemb_target_family_v0_1_b5,34.49148178100586,33.114776611328125,33.499794006347656,42.49024963378906,43.195308685302734,44.74517822265625,14.96,0.0,0.0,0.0,44.16713523864746,-1.6768856048583984,0.34782608695652173,ok,provisional_n24,True,N24-internal B5 method check only; not final AOI-wide modifier,0.375,-0.02717391304347827
TP_0141,12,overhead_as_canopy,n24_internal_b3,systemb_target_family_v0_1_b5,40.05991363525391,36.833831787109375,38.13201904296875,58.2422981262207,59.124393463134766,61.47864532470703,17.16,15.72,15.72,15.72,60.94166564941406,-2.6993675231933594,0.2608695652173913,ok,provisional_n24,True,N24-internal B5 method check only; not final AOI-wide modifier,0.2916666666666667,-0.030797101449275388
TP_0141,13,overhead_as_canopy,n24_internal_b3,systemb_target_family_v0_1_b5,39.7197380065918,36.79400253295898,38.2039680480957,57.32717514038086,58.46905517578125,60.76849365234375,16.400000000000002,14.24,14.24,13.28,60.61849594116211,-3.29132080078125,0.30434782608695654,ok,provisional_n24,True,N24-internal B5 method check only; not final AOI-wide modifier,0.3333333333333333,-0.028985507246376774
TP_0141,15,overhead_as_canopy,n24_internal_b3,systemb_target_family_v0_1_b5,38.6506462097168,36.06453323364258,37.100364685058594,54.23711395263672,55.76639175415039,57.41887283325195,14.72,13.6,13.6,7.720000000000001,57.903303146362305,-3.666189193725586,0.30434782608695654,ok,provisional_n24,True,N24-internal B5 method check only; not final AOI-wide modifier,0.3333333333333333,-0.028985507246376774
TP_0141,16,overhead_as_canopy,n24_internal_b3,systemb_target_family_v0_1_b5,35.78506088256836,34.31429672241211,34.881813049316406,45.151145935058594,46.890907287597656,48.59983825683594,10.64,10.28,0.0,0.0,48.777780532836914,-3.6266345977783203,0.2608695652173913,ok,provisional_n24,True,N24-internal B5 method check only; not final AOI-wide modifier,0.2916666666666667,-0.030797101449275388
TP_0154,10,base,n24_internal_b3,systemb_target_family_v0_1_b5,32.79429244995117,32.77576446533203,32.78314971923828,32.78472900390625,32.802978515625,33.564231872558594,0.0,0.0,0.0,0.0,44.96133995056152,-12.176610946655273,0.043478260869565216,ok,provisional_n24,True,N24-internal B5 method check only; not final AOI-wide modifier,0.0833333333333333,-0.039855072463768085
TP_0154,12,base,n24_internal_b3,systemb_target_family_v0_1_b5,35.86693572998047,35.496299743652344,35.50045394897461,35.59247589111328,35.834659576416016,61.12905883789063,1.2,1.2,1.2,1.12,61.5889892578125,-25.99651336669922,0.08695652173913043,ok,provisional_n24,True,N24-internal B5 method check only; not final AOI-wide modifier,0.125,-0.03804347826086957
TP_0154,13,base,n24_internal_b3,systemb_target_family_v0_1_b5,36.000545501708984,35.606590270996094,35.613014221191406,35.67036056518555,35.86656951904297,59.8248176574707,1.36,1.36,1.36,1.08,61.46331977844238,-25.792959213256836,0.08695652173913043,ok,provisional_n24,True,N24-internal B5 method check only; not final AOI-wide modifier,0.125,-0.03804347826086957
TP_0154,15,base,n24_internal_b3,systemb_target_family_v0_1_b5,35.68967056274414,35.52800369262695,35.534996032714844,35.54961395263672,35.761207580566406,55.868614196777344,0.64,0.64,0.44,0.44,59.42742729187012,-23.8778133392334,0.043478260869565216,ok,provisional_n24,True,N24-internal B5 method check only; not final AOI-wide modifier,0.0833333333333333,-0.039855072463768085
TP_0154,16,base,n24_internal_b3,systemb_target_family_v0_1_b5,34.31984329223633,34.29984664916992,34.30886459350586,34.310874938964844,34.354461669921875,35.056941986083984,0.0,0.0,0.0,0.0,50.2655029296875,-15.954627990722656,0.043478260869565216,ok,provisional_n24,True,N24-internal B5 method check only; not final AOI-wide modifier,0.0833333333333333,-0.039855072463768085
TP_0154,10,overhead_as_canopy,n24_internal_b3,systemb_target_family_v0_1_b5,32.79429244995117,32.77576446533203,32.78314971923828,32.78472900390625,32.802978515625,33.564231872558594,0.0,0.0,0.0,0.0,44.16713523864746,-11.382406234741211,0.043478260869565216,ok,provisional_n24,True,N24-internal B5 method check only; not final AOI-wide modifier,0.0833333333333333,-0.039855072463768085
TP_0154,12,overhead_as_canopy,n24_internal_b3,systemb_target_family_v0_1_b5,35.86693572998047,35.496299743652344,35.50045394897461,35.59247589111328,35.834659576416016,61.12905883789063,1.2,1.2,1.2,1.12,60.94166564941406,-25.34918975830078,0.08695652173913043,ok,provisional_n24,True,N24-internal B5 method check only; not final AOI-wide modifier,0.125,-0.03804347826086957
TP_0154,13,overhead_as_canopy,n24_internal_b3,systemb_target_family_v0_1_b5,36.000545501708984,35.606590270996094,35.613014221191406,35.67036056518555,35.86656951904297,59.8248176574707,1.36,1.36,1.36,1.08,60.61849594116211,-24.948135375976562,0.08695652173913043,ok,provisional_n24,True,N24-internal B5 method check only; not final AOI-wide modifier,0.125,-0.03804347826086957
TP_0154,15,overhead_as_canopy,n24_internal_b3,systemb_target_family_v0_1_b5,35.68967056274414,35.52800369262695,35.534996032714844,35.54961395263672,35.761207580566406,55.868614196777344,0.64,0.64,0.44,0.44,57.903303146362305,-22.353689193725586,0.043478260869565216,ok,provisional_n24,True,N24-internal B5 method check only; not final AOI-wide modifier,0.0833333333333333,-0.039855072463768085
TP_0154,16,overhead_as_canopy,n24_internal_b3,systemb_target_family_v0_1_b5,34.31984329223633,34.29984664916992,34.30886459350586,34.310874938964844,34.354461669921875,35.056941986083984,0.0,0.0,0.0,0.0,48.777780532836914,-14.46690559387207,0.043478260869565216,ok,provisional_n24,True,N24-internal B5 method check only; not final AOI-wide modifier,0.0833333333333333,-0.039855072463768085
TP_0254,10,base,n24_internal_b3,systemb_target_family_v0_1_b5,34.381370544433594,33.03364944458008,33.428096771240234,42.30102157592773,43.68822479248047,44.35681915283203,14.24,0.0,0.0,0.0,44.96133995056152,-2.660318374633796,0.30434782608695654,ok,provisional_n24,True,N24-internal B5 method check only; not final AOI-wide modifier,0.3333333333333333,-0.028985507246376774
TP_0254,12,base,n24_internal_b3,systemb_target_family_v0_1_b5,40.61389923095703,36.91283416748047,38.25824737548828,59.58810424804688,60.65027618408203,61.20318984985352,20.36,17.32,17.32,17.32,61.5889892578125,-2.000885009765618,0.34782608695652173,ok,provisional_n24,True,N24-internal B5 method check only; not final AOI-wide modifier,0.375,-0.02717391304347827
TP_0254,13,base,n24_internal_b3,systemb_target_family_v0_1_b5,40.52610778808594,37.3062858581543,38.389793395996094,58.27266693115234,59.65319061279297,60.47515106201172,20.52,17.32,17.28,17.28,61.46331977844238,-3.190652847290046,0.34782608695652173,ok,provisional_n24,True,N24-internal B5 method check only; not final AOI-wide modifier,0.375,-0.02717391304347827
TP_0254,15,base,n24_internal_b3,systemb_target_family_v0_1_b5,39.27252578735352,36.15252685546875,37.41878128051758,55.04627227783203,55.93986511230469,58.0178337097168,17.88,16.36,16.36,10.28,59.42742729187012,-4.381155014038086,0.34782608695652173,ok,provisional_n24,True,N24-internal B5 method check only; not final AOI-wide modifier,0.375,-0.02717391304347827
TP_0254,16,base,n24_internal_b3,systemb_target_family_v0_1_b5,36.0684700012207,34.51305389404297,35.022464752197266,45.4946517944336,46.41646957397461,48.93928146362305,12.8,11.68,0.0,0.0,50.2655029296875,-4.770851135253899,0.34782608695652173,ok,provisional_n24,True,N24-internal B5 method check only; not final AOI-wide modifier,0.375,-0.02717391304347827
TP_0254,10,overhead_as_canopy,n24_internal_b3,systemb_target_family_v0_1_b5,34.36996841430664,33.02903366088867,33.41234588623047,42.28451919555664,43.69148254394531,44.35681915283203,14.16,0.0,0.0,0.0,44.16713523864746,-1.8826160430908203,0.30434782608695654,ok,provisional_n24,True,N24-internal B5 method check only; not final AOI-wide modifier,0.3333333333333333,-0.028985507246376774
TP_0254,12,overhead_as_canopy,n24_internal_b3,systemb_target_family_v0_1_b5,40.59488296508789,36.90517425537109,38.257572174072266,59.587032318115234,60.65025329589844,61.20318984985352,20.28,17.28,17.24,17.24,60.94166564941406,-1.3546333312988281,0.34782608695652173,ok,provisional_n24,True,N24-internal B5 method check only; not final AOI-wide modifier,0.375,-0.02717391304347827
TP_0254,13,overhead_as_canopy,n24_internal_b3,systemb_target_family_v0_1_b5,40.48944091796875,37.27702331542969,38.38819885253906,58.26285171508789,59.65319061279297,60.47515106201172,20.44,17.16,17.119999999999997,17.119999999999997,60.61849594116211,-2.3556442260742188,0.34782608695652173,ok,provisional_n24,True,N24-internal B5 method check only; not final AOI-wide modifier,0.375,-0.02717391304347827
TP_0254,15,overhead_as_canopy,n24_internal_b3,systemb_target_family_v0_1_b5,39.26814270019531,36.15252685546875,37.41091537475586,55.04346466064453,55.93986511230469,58.0178337097168,17.84,16.36,16.36,10.28,57.903303146362305,-2.8598384857177734,0.34782608695652173,ok,provisional_n24,True,N24-internal B5 method check only; not final AOI-wide modifier,0.375,-0.02717391304347827
TP_0254,16,overhead_as_canopy,n24_internal_b3,systemb_target_family_v0_1_b5,36.06061935424805,34.511085510253906,35.0094108581543,45.46495819091797,46.41635894775391,48.93928146362305,12.8,11.64,0.0,0.0,48.777780532836914,-3.3128223419189453,0.34782608695652173,ok,provisional_n24,True,N24-internal B5 method check only; not final AOI-wide modifier,0.375,-0.02717391304347827
TP_0301,10,base,n24_internal_b3,systemb_target_family_v0_1_b5,38.1929931640625,33.987525939941406,43.8730354309082,46.63159942626953,46.63159942626953,46.63159942626953,46.36,10.84,0.0,0.0,44.96133995056152,1.6702594757080078,1.0,ok,provisional_n24,True,N24-internal B5 method check only; not final AOI-wide modifier,1.0,0.0
TP_0301,12,base,n24_internal_b3,systemb_target_family_v0_1_b5,51.06782531738281,58.799903869628906,61.52446746826172,62.34635543823242,62.34635543823242,62.34635543823242,67.67999999999999,56.720000000000006,56.6,56.6,61.5889892578125,0.7573661804199219,1.0,ok,provisional_n24,True,N24-internal B5 method check only; not final AOI-wide modifier,1.0,0.0
TP_0301,13,base,n24_internal_b3,systemb_target_family_v0_1_b5,51.92428588867188,58.22767639160156,60.86508560180664,62.62362289428711,62.62362289428711,62.62362289428711,70.56,63.2,63.16,63.16,61.46331977844238,1.1603031158447266,1.0,ok,provisional_n24,True,N24-internal B5 method check only; not final AOI-wide modifier,1.0,0.0
TP_0301,15,base,n24_internal_b3,systemb_target_family_v0_1_b5,47.52867126464844,52.35891342163086,57.89589691162109,60.863189697265625,60.863189697265625,60.863189697265625,53.04,50.92,50.92,38.0,59.42742729187012,1.4357624053955078,1.0,ok,provisional_n24,True,N24-internal B5 method check only; not final AOI-wide modifier,1.0,0.0
TP_0301,16,base,n24_internal_b3,systemb_target_family_v0_1_b5,40.9310302734375,35.708580017089844,48.52159881591797,51.87674331665039,51.87674331665039,51.87674331665039,43.36,38.64,10.84,0.0,50.2655029296875,1.6112403869628906,1.0,ok,provisional_n24,True,N24-internal B5 method check only; not final AOI-wide modifier,1.0,0.0
TP_0301,10,overhead_as_canopy,n24_internal_b3,systemb_target_family_v0_1_b5,38.1929931640625,33.987525939941406,43.8730354309082,46.63159942626953,46.63159942626953,46.63159942626953,46.36,10.84,0.0,0.0,44.16713523864746,2.4644641876220703,1.0,ok,provisional_n24,True,N24-internal B5 method check only; not final AOI-wide modifier,1.0,0.0
TP_0301,12,overhead_as_canopy,n24_internal_b3,systemb_target_family_v0_1_b5,51.06782531738281,58.799903869628906,61.52446746826172,62.34635543823242,62.34635543823242,62.34635543823242,67.67999999999999,56.720000000000006,56.6,56.6,60.94166564941406,1.4046897888183594,1.0,ok,provisional_n24,True,N24-internal B5 method check only; not final AOI-wide modifier,1.0,0.0
TP_0301,13,overhead_as_canopy,n24_internal_b3,systemb_target_family_v0_1_b5,51.92428588867188,58.22767639160156,60.86508560180664,62.62362289428711,62.62362289428711,62.62362289428711,70.56,63.2,63.16,63.16,60.61849594116211,2.005126953125,1.0,ok,provisional_n24,True,N24-internal B5 method check only; not final AOI-wide modifier,1.0,0.0
TP_0301,15,overhead_as_canopy,n24_internal_b3,systemb_target_family_v0_1_b5,47.52867126464844,52.35891342163086,57.89589691162109,60.863189697265625,60.863189697265625,60.863189697265625,53.04,50.92,50.92,38.0,57.903303146362305,2.9598865509033203,1.0,ok,provisional_n24,True,N24-internal B5 method check only; not final AOI-wide modifier,1.0,0.0
TP_0301,16,overhead_as_canopy,n24_internal_b3,systemb_target_family_v0_1_b5,40.9310302734375,35.708580017089844,48.52159881591797,51.87674331665039,51.87674331665039,51.87674331665039,43.36,38.64,10.84,0.0,48.777780532836914,3.0989627838134766,1.0,ok,provisional_n24,True,N24-internal B5 method check only; not final AOI-wide modifier,1.0,0.0
TP_0326,10,base,n24_internal_b3,systemb_target_family_v0_1_b5,38.02632141113281,34.173912048339844,43.26238632202149,44.18610000610352,46.4856071472168,46.63203811645508,46.400000000000006,8.48,0.0,0.0,44.96133995056152,-0.7752399444580007,0.43478260869565216,ok,provisional_n24,True,N24-internal B5 method check only; not final AOI-wide modifier,0.4583333333333333,-0.023550724637681153
TP_0326,12,base,n24_internal_b3,systemb_target_family_v0_1_b5,50.22969055175781,57.8245849609375,60.87721252441406,61.33607864379883,62.2581672668457,62.346927642822266,67.16,55.56,55.44,55.44,61.5889892578125,-0.2529106140136719,0.43478260869565216,ok,provisional_n24,True,N24-internal B5 method check only; not final AOI-wide modifier,0.4583333333333333,-0.023550724637681153
TP_0326,13,base,n24_internal_b3,systemb_target_family_v0_1_b5,49.49129867553711,56.57537841796875,59.87584686279297,60.62959289550781,62.47431945800781,62.623565673828125,63.72,54.28,54.24,54.08,61.46331977844238,-0.8337268829345703,0.391304347826087,ok,provisional_n24,True,N24-internal B5 method check only; not final AOI-wide modifier,0.4166666666666667,-0.025362318840579712
TP_0326,15,base,n24_internal_b3,systemb_target_family_v0_1_b5,47.01081848144531,52.63457107543945,56.27700805664063,58.22137069702149,60.730934143066406,60.86261749267578,56.39999999999999,50.72,50.68,38.92,59.42742729187012,-1.2060565948486257,0.43478260869565216,ok,provisional_n24,True,N24-internal B5 method check only; not final AOI-wide modifier,0.4583333333333333,-0.023550724637681153
TP_0326,16,base,n24_internal_b3,systemb_target_family_v0_1_b5,39.83237457275391,36.38874435424805,46.169246673583984,49.02817153930664,51.73527908325195,51.87617111206055,36.36,34.64,8.48,0.0,50.2655029296875,-1.2373313903808594,0.43478260869565216,ok,provisional_n24,True,N24-internal B5 method check only; not final AOI-wide modifier,0.4583333333333333,-0.023550724637681153
TP_0326,10,overhead_as_canopy,n24_internal_b3,systemb_target_family_v0_1_b5,37.90842056274414,34.053409576416016,43.11092758178711,44.18610000610352,46.4856071472168,46.63203811645508,45.24,8.48,0.0,0.0,44.16713523864746,0.018964767456061793,0.5217391304347826,ok,provisional_n24,True,N24-internal B5 method check only; not final AOI-wide modifier,0.5416666666666666,-0.019927536231884035
TP_0326,12,overhead_as_canopy,n24_internal_b3,systemb_target_family_v0_1_b5,49.96697998046875,57.59703063964844,60.74032974243164,61.33607864379883,62.2581672668457,62.346927642822266,66.84,54.400000000000006,54.28,54.28,60.94166564941406,0.3944129943847656,0.5217391304347826,ok,provisional_n24,True,N24-internal B5 method check only; not final AOI-wide modifier,0.5416666666666666,-0.019927536231884035
TP_0326,13,overhead_as_canopy,n24_internal_b3,systemb_target_family_v0_1_b5,49.234771728515625,56.26803970336914,59.81266021728516,60.62959289550781,62.47431945800781,62.623565673828125,63.48,53.080000000000005,53.04,52.88,60.61849594116211,0.011096954345703125,0.5217391304347826,ok,provisional_n24,True,N24-internal B5 method check only; not final AOI-wide modifier,0.5416666666666666,-0.019927536231884035
TP_0326,15,overhead_as_canopy,n24_internal_b3,systemb_target_family_v0_1_b5,46.768192291259766,42.3945426940918,56.00123977661133,58.22137069702149,60.730934143066406,60.86261749267578,55.32,49.56,49.52,36.4,57.903303146362305,0.3180675506591868,0.5652173913043478,ok,provisional_n24,True,N24-internal B5 method check only; not final AOI-wide modifier,0.5833333333333334,-0.018115942028985588
TP_0326,16,overhead_as_canopy,n24_internal_b3,systemb_target_family_v0_1_b5,39.627220153808594,36.33210754394531,45.85508346557617,49.02817153930664,51.73527908325195,51.87617111206055,34.8,32.32,8.48,0.0,48.777780532836914,0.25039100646972656,0.5217391304347826,ok,provisional_n24,True,N24-internal B5 method check only; not final AOI-wide modifier,0.5416666666666666,-0.019927536231884035
TP_0366,10,base,n24_internal_b3,systemb_target_family_v0_1_b5,44.213905334472656,44.96094512939453,45.30974197387695,45.537864685058594,45.66337966918945,46.223419189453125,93.72,47.4,0.0,0.0,44.96133995056152,0.5765247344970703,0.6086956521739131,ok,provisional_n24,True,N24-internal B5 method check only; not final AOI-wide modifier,0.625,-0.016304347826086918
TP_0366,12,base,n24_internal_b3,systemb_target_family_v0_1_b5,60.7249870300293,61.454986572265625,61.64874649047852,61.75421142578125,61.91280364990234,62.16379928588867,99.68,97.64,97.64,97.64,61.5889892578125,0.16522216796875,0.5652173913043478,ok,provisional_n24,True,N24-internal B5 method check only; not final AOI-wide modifier,0.5833333333333334,-0.018115942028985588
TP_0366,13,base,n24_internal_b3,systemb_target_family_v0_1_b5,60.643314361572266,61.252323150634766,61.541412353515625,61.7314338684082,61.82551956176758,62.30185317993164,99.88,98.44,98.44,98.44,61.46331977844238,0.2681140899658203,0.6086956521739131,ok,provisional_n24,True,N24-internal B5 method check only; not final AOI-wide modifier,0.625,-0.016304347826086918
TP_0366,15,base,n24_internal_b3,systemb_target_family_v0_1_b5,58.413536071777344,59.07978439331055,59.428321838378906,59.73647689819336,59.849735260009766,60.49845123291016,99.36,98.08,98.08,96.84,59.42742729187012,0.3090496063232422,0.6086956521739131,ok,provisional_n24,True,N24-internal B5 method check only; not final AOI-wide modifier,0.625,-0.016304347826086918
TP_0366,16,base,n24_internal_b3,systemb_target_family_v0_1_b5,49.25730514526367,49.95342254638672,50.34563827514648,50.68217468261719,50.79842376708984,51.45416259765625,96.52,96.08,47.92,0.0,50.2655029296875,0.4166717529296875,0.6086956521739131,ok,provisional_n24,True,N24-internal B5 method check only; not final AOI-wide modifier,0.625,-0.016304347826086918
TP_0366,10,overhead_as_canopy,n24_internal_b3,systemb_target_family_v0_1_b5,44.07563018798828,44.87334442138672,45.20923614501953,45.489559173583984,45.63541030883789,46.129093170166016,93.24,42.08,0.0,0.0,44.16713523864746,1.3224239349365234,0.6956521739130435,ok,provisional_n24,True,N24-internal B5 method check only; not final AOI-wide modifier,0.7083333333333334,-0.012681159420289911
TP_0366,12,overhead_as_canopy,n24_internal_b3,systemb_target_family_v0_1_b5,60.53070068359375,61.362060546875,61.59000778198242,61.71053695678711,61.85928726196289,62.10926818847656,99.68,97.16,97.16,97.16,60.94166564941406,0.7688713073730469,0.6956521739130435,ok,provisional_n24,True,N24-internal B5 method check only; not final AOI-wide modifier,0.7083333333333334,-0.012681159420289911
TP_0366,13,overhead_as_canopy,n24_internal_b3,systemb_target_family_v0_1_b5,60.34683609008789,61.17253112792969,61.47410583496094,61.69400024414063,61.81169509887695,62.30185317993164,99.88,97.48,97.48,97.48,60.61849594116211,1.0755043029785227,0.6956521739130435,ok,provisional_n24,True,N24-internal B5 method check only; not final AOI-wide modifier,0.7083333333333334,-0.012681159420289911
TP_0366,15,overhead_as_canopy,n24_internal_b3,systemb_target_family_v0_1_b5,57.91175079345703,58.921852111816406,59.35393524169922,59.68304443359375,59.83660507202149,60.49845123291016,98.6,95.96,95.96,94.72,57.903303146362305,1.7797412872314453,0.7391304347826086,ok,provisional_n24,True,N24-internal B5 method check only; not final AOI-wide modifier,0.75,-0.010869565217391353
TP_0366,16,overhead_as_canopy,n24_internal_b3,systemb_target_family_v0_1_b5,48.84811782836914,49.81201934814453,50.27494812011719,50.61408996582031,50.78455352783203,51.45416259765625,93.92,93.52,41.52,0.0,48.777780532836914,1.8363094329833984,0.7391304347826086,ok,provisional_n24,True,N24-internal B5 method check only; not final AOI-wide modifier,0.75,-0.010869565217391353
TP_0409,10,base,n24_internal_b3,systemb_target_family_v0_1_b5,34.83635330200195,33.11314392089844,34.20868682861328,42.157470703125,42.41999816894531,44.77104187011719,19.4,0.0,0.0,0.0,44.96133995056152,-2.8038692474365234,0.2608695652173913,ok,provisional_n24,True,N24-internal B5 method check only; not final AOI-wide modifier,0.2916666666666667,-0.030797101449275388
TP_0409,12,base,n24_internal_b3,systemb_target_family_v0_1_b5,41.98249816894531,36.88605499267578,41.62076950073242,58.58767318725586,58.970611572265625,61.180057525634766,30.2,24.48,24.48,24.48,61.5889892578125,-3.0013160705566406,0.2608695652173913,ok,provisional_n24,True,N24-internal B5 method check only; not final AOI-wide modifier,0.2916666666666667,-0.030797101449275388
TP_0409,13,base,n24_internal_b3,systemb_target_family_v0_1_b5,41.366973876953125,36.77789688110352,40.977725982666016,57.28499221801758,57.91927337646485,60.78064727783203,28.16,22.56,22.56,22.56,61.46331977844238,-4.178327560424805,0.2608695652173913,ok,provisional_n24,True,N24-internal B5 method check only; not final AOI-wide modifier,0.2916666666666667,-0.030797101449275388
TP_0409,15,base,n24_internal_b3,systemb_target_family_v0_1_b5,38.86214828491211,35.89653778076172,37.649513244628906,54.29258346557617,55.58564376831055,57.198856353759766,15.840000000000002,14.88,14.88,7.28,59.42742729187012,-5.134843826293945,0.2608695652173913,ok,provisional_n24,True,N24-internal B5 method check only; not final AOI-wide modifier,0.2916666666666667,-0.030797101449275388
TP_0409,16,base,n24_internal_b3,systemb_target_family_v0_1_b5,36.18276596069336,34.50628662109375,35.381988525390625,45.290626525878906,46.46531295776367,48.29962158203125,13.88,11.92,0.0,0.0,50.2655029296875,-4.974876403808594,0.30434782608695654,ok,provisional_n24,True,N24-internal B5 method check only; not final AOI-wide modifier,0.3333333333333333,-0.028985507246376774
TP_0409,10,overhead_as_canopy,n24_internal_b3,systemb_target_family_v0_1_b5,34.778663635253906,33.091590881347656,34.16686248779297,42.11679458618164,42.41179275512695,44.77104187011719,18.88,0.0,0.0,0.0,44.16713523864746,-2.0503406524658203,0.2608695652173913,ok,provisional_n24,True,N24-internal B5 method check only; not final AOI-wide modifier,0.2916666666666667,-0.030797101449275388
TP_0409,12,overhead_as_canopy,n24_internal_b3,systemb_target_family_v0_1_b5,41.838748931884766,36.81864547729492,41.39445877075195,58.49995803833008,58.829322814941406,61.180057525634766,29.8,23.92,23.92,23.92,60.94166564941406,-2.4417076110839844,0.30434782608695654,ok,provisional_n24,True,N24-internal B5 method check only; not final AOI-wide modifier,0.3333333333333333,-0.028985507246376774
TP_0409,13,overhead_as_canopy,n24_internal_b3,systemb_target_family_v0_1_b5,41.23764801025391,36.69302749633789,40.84627914428711,57.18027877807617,57.8399658203125,60.78064727783203,27.76,22.040000000000003,22.040000000000003,22.040000000000003,60.61849594116211,-3.4382171630859375,0.2608695652173913,ok,provisional_n24,True,N24-internal B5 method check only; not final AOI-wide modifier,0.2916666666666667,-0.030797101449275388
TP_0409,15,overhead_as_canopy,n24_internal_b3,systemb_target_family_v0_1_b5,38.81929397583008,35.87513732910156,37.627403259277344,54.2335319519043,55.53555679321289,57.198856353759766,15.72,14.72,14.72,7.12,57.903303146362305,-3.669771194458008,0.2608695652173913,ok,provisional_n24,True,N24-internal B5 method check only; not final AOI-wide modifier,0.2916666666666667,-0.030797101449275388
TP_0409,16,overhead_as_canopy,n24_internal_b3,systemb_target_family_v0_1_b5,36.142555236816406,34.48639678955078,35.341434478759766,45.28448867797852,46.4425163269043,48.29962158203125,13.6,11.84,0.0,0.0,48.777780532836914,-3.4932918548583913,0.30434782608695654,ok,provisional_n24,True,N24-internal B5 method check only; not final AOI-wide modifier,0.3333333333333333,-0.028985507246376774
TP_0433,10,base,n24_internal_b3,systemb_target_family_v0_1_b5,32.89397048950195,32.771236419677734,32.775516510009766,32.86842346191406,33.160423278808594,42.15037536621094,1.0,0.0,0.0,0.0,44.96133995056152,-12.092916488647461,0.13043478260869565,ok,provisional_n24,True,N24-internal B5 method check only; not final AOI-wide modifier,0.1666666666666666,-0.03623188405797095
TP_0433,12,base,n24_internal_b3,systemb_target_family_v0_1_b5,36.00526428222656,35.48683166503906,35.518402099609375,35.96833038330078,36.85254287719727,58.16933059692383,2.28,1.64,1.64,1.64,61.5889892578125,-25.62065887451172,0.13043478260869565,ok,provisional_n24,True,N24-internal B5 method check only; not final AOI-wide modifier,0.1666666666666666,-0.03623188405797095
TP_0433,13,base,n24_internal_b3,systemb_target_family_v0_1_b5,36.09662628173828,35.59687805175781,35.63285827636719,36.113311767578125,37.02426528930664,57.65642547607422,2.44,1.5599999999999998,1.5599999999999998,1.44,61.46331977844238,-25.350008010864258,0.13043478260869565,ok,provisional_n24,True,N24-internal B5 method check only; not final AOI-wide modifier,0.1666666666666666,-0.03623188405797095
TP_0433,15,base,n24_internal_b3,systemb_target_family_v0_1_b5,35.89230728149414,35.519222259521484,35.5416374206543,35.96100234985352,36.701419830322266,55.08841323852539,1.6,1.28,1.28,0.04,59.42742729187012,-23.466424942016594,0.13043478260869565,ok,provisional_n24,True,N24-internal B5 method check only; not final AOI-wide modifier,0.1666666666666666,-0.03623188405797095
TP_0433,16,base,n24_internal_b3,systemb_target_family_v0_1_b5,34.479736328125,34.29485321044922,34.30167388916016,34.54447937011719,35.015647888183594,46.38434600830078,0.88,0.76,0.0,0.0,50.2655029296875,-15.721023559570312,0.13043478260869565,ok,provisional_n24,True,N24-internal B5 method check only; not final AOI-wide modifier,0.1666666666666666,-0.03623188405797095
TP_0433,10,overhead_as_canopy,n24_internal_b3,systemb_target_family_v0_1_b5,32.89397048950195,32.771236419677734,32.775516510009766,32.86842346191406,33.160423278808594,42.15037536621094,1.0,0.0,0.0,0.0,44.16713523864746,-11.298711776733398,0.13043478260869565,ok,provisional_n24,True,N24-internal B5 method check only; not final AOI-wide modifier,0.1666666666666666,-0.03623188405797095
TP_0433,12,overhead_as_canopy,n24_internal_b3,systemb_target_family_v0_1_b5,36.00526428222656,35.48683166503906,35.518402099609375,35.96833038330078,36.85254287719727,58.16933059692383,2.28,1.64,1.64,1.64,60.94166564941406,-24.97333526611328,0.13043478260869565,ok,provisional_n24,True,N24-internal B5 method check only; not final AOI-wide modifier,0.1666666666666666,-0.03623188405797095
TP_0433,13,overhead_as_canopy,n24_internal_b3,systemb_target_family_v0_1_b5,36.09662628173828,35.59687805175781,35.63285827636719,36.113311767578125,37.02426528930664,57.65642547607422,2.44,1.5599999999999998,1.5599999999999998,1.44,60.61849594116211,-24.505184173583984,0.13043478260869565,ok,provisional_n24,True,N24-internal B5 method check only; not final AOI-wide modifier,0.1666666666666666,-0.03623188405797095
TP_0433,15,overhead_as_canopy,n24_internal_b3,systemb_target_family_v0_1_b5,35.89230728149414,35.519222259521484,35.5416374206543,35.96100234985352,36.701419830322266,55.08841323852539,1.6,1.28,1.28,0.04,57.903303146362305,-21.942300796508782,0.13043478260869565,ok,provisional_n24,True,N24-internal B5 method check only; not final AOI-wide modifier,0.1666666666666666,-0.03623188405797095
TP_0433,16,overhead_as_canopy,n24_internal_b3,systemb_target_family_v0_1_b5,34.479736328125,34.29485321044922,34.30167388916016,34.54447937011719,35.015647888183594,46.38434600830078,0.88,0.76,0.0,0.0,48.777780532836914,-14.233301162719727,0.13043478260869565,ok,provisional_n24,True,N24-internal B5 method check only; not final AOI-wide modifier,0.1666666666666666,-0.03623188405797095
TP_0492,10,base,n24_internal_b3,systemb_target_family_v0_1_b5,32.79103088378906,32.787776947021484,32.791316986083984,32.791316986083984,32.83436965942383,33.074832916259766,0.0,0.0,0.0,0.0,44.96133995056152,-12.170022964477539,0.08695652173913043,ok,provisional_n24,True,N24-internal B5 method check only; not final AOI-wide modifier,0.125,-0.03804347826086957
TP_0492,12,base,n24_internal_b3,systemb_target_family_v0_1_b5,35.532508850097656,35.50806427001953,35.50806427001953,35.56707763671875,35.74211120605469,36.19833755493164,0.0,0.0,0.0,0.0,61.5889892578125,-26.02191162109375,0.043478260869565216,ok,provisional_n24,True,N24-internal B5 method check only; not final AOI-wide modifier,0.0833333333333333,-0.039855072463768085
TP_0492,13,base,n24_internal_b3,systemb_target_family_v0_1_b5,35.64285659790039,35.62214660644531,35.62214660644531,35.66880416870117,35.84223556518555,36.305450439453125,0.0,0.0,0.0,0.0,61.46331977844238,-25.79451560974121,0.043478260869565216,ok,provisional_n24,True,N24-internal B5 method check only; not final AOI-wide modifier,0.0833333333333333,-0.039855072463768085
TP_0492,15,base,n24_internal_b3,systemb_target_family_v0_1_b5,35.55673599243164,35.546329498291016,35.54765701293945,35.57827377319336,35.67491149902344,36.08007049560547,0.0,0.0,0.0,0.0,59.42742729187012,-23.849153518676758,0.08695652173913043,ok,provisional_n24,True,N24-internal B5 method check only; not final AOI-wide modifier,0.125,-0.03804347826086957
TP_0492,16,base,n24_internal_b3,systemb_target_family_v0_1_b5,34.321495056152344,34.31732940673828,34.31943893432617,34.331153869628906,34.399906158447266,34.730308532714844,0.0,0.0,0.0,0.0,50.2655029296875,-15.934349060058594,0.08695652173913043,ok,provisional_n24,True,N24-internal B5 method check only; not final AOI-wide modifier,0.125,-0.03804347826086957
TP_0492,10,overhead_as_canopy,n24_internal_b3,systemb_target_family_v0_1_b5,32.79103088378906,32.787776947021484,32.791316986083984,32.791316986083984,32.83436965942383,33.074832916259766,0.0,0.0,0.0,0.0,44.16713523864746,-11.375818252563477,0.08695652173913043,ok,provisional_n24,True,N24-internal B5 method check only; not final AOI-wide modifier,0.125,-0.03804347826086957
TP_0492,12,overhead_as_canopy,n24_internal_b3,systemb_target_family_v0_1_b5,35.532508850097656,35.50806427001953,35.50806427001953,35.56707763671875,35.74211120605469,36.19833755493164,0.0,0.0,0.0,0.0,60.94166564941406,-25.374588012695312,0.043478260869565216,ok,provisional_n24,True,N24-internal B5 method check only; not final AOI-wide modifier,0.0833333333333333,-0.039855072463768085
TP_0492,13,overhead_as_canopy,n24_internal_b3,systemb_target_family_v0_1_b5,35.64285659790039,35.62214660644531,35.62214660644531,35.66880416870117,35.84223556518555,36.305450439453125,0.0,0.0,0.0,0.0,60.61849594116211,-24.949691772460938,0.043478260869565216,ok,provisional_n24,True,N24-internal B5 method check only; not final AOI-wide modifier,0.0833333333333333,-0.039855072463768085
TP_0492,15,overhead_as_canopy,n24_internal_b3,systemb_target_family_v0_1_b5,35.55673599243164,35.546329498291016,35.54765701293945,35.57827377319336,35.67491149902344,36.08007049560547,0.0,0.0,0.0,0.0,57.903303146362305,-22.325029373168945,0.08695652173913043,ok,provisional_n24,True,N24-internal B5 method check only; not final AOI-wide modifier,0.125,-0.03804347826086957
TP_0492,16,overhead_as_canopy,n24_internal_b3,systemb_target_family_v0_1_b5,34.321495056152344,34.31732940673828,34.31943893432617,34.331153869628906,34.399906158447266,34.730308532714844,0.0,0.0,0.0,0.0,48.777780532836914,-14.446626663208008,0.08695652173913043,ok,provisional_n24,True,N24-internal B5 method check only; not final AOI-wide modifier,0.125,-0.03804347826086957
TP_0542,10,base,n24_internal_b3,systemb_target_family_v0_1_b5,34.135581970214844,32.76697540283203,33.255069732666016,41.421348571777344,43.85076904296875,46.61781311035156,11.16,4.24,0.0,0.0,44.96133995056152,-3.5399913787841797,0.21739130434782608,ok,provisional_n24,True,N24-internal B5 method check only; not final AOI-wide modifier,0.25,-0.03260869565217392
TP_0542,12,base,n24_internal_b3,systemb_target_family_v0_1_b5,39.17309188842773,35.769264221191406,37.21305084228516,57.684173583984375,59.54205322265625,62.350494384765625,14.88,13.2,13.2,13.16,61.5889892578125,-3.904815673828125,0.21739130434782608,ok,provisional_n24,True,N24-internal B5 method check only; not final AOI-wide modifier,0.25,-0.03260869565217392
TP_0542,13,base,n24_internal_b3,systemb_target_family_v0_1_b5,39.12554550170898,35.89167785644531,37.297401428222656,55.490020751953125,59.004581451416016,62.61772537231445,15.0,12.68,12.68,10.36,61.46331977844238,-5.973299026489258,0.21739130434782608,ok,provisional_n24,True,N24-internal B5 method check only; not final AOI-wide modifier,0.25,-0.03260869565217392
TP_0542,15,base,n24_internal_b3,systemb_target_family_v0_1_b5,37.97111511230469,35.501712799072266,36.39769744873047,50.73564910888672,56.417423248291016,60.84501266479492,11.4,10.12,10.12,6.76,59.42742729187012,-8.691778182983398,0.21739130434782608,ok,provisional_n24,True,N24-internal B5 method check only; not final AOI-wide modifier,0.25,-0.03260869565217392
TP_0542,16,base,n24_internal_b3,systemb_target_family_v0_1_b5,35.30764389038086,34.222171783447266,34.456336975097656,35.841819763183594,47.4261589050293,51.856224060058594,5.96,5.88,4.24,0.0,50.2655029296875,-14.423683166503906,0.21739130434782608,ok,provisional_n24,True,N24-internal B5 method check only; not final AOI-wide modifier,0.25,-0.03260869565217392
TP_0542,10,overhead_as_canopy,n24_internal_b3,systemb_target_family_v0_1_b5,34.00318908691406,32.73906707763672,33.08254623413086,40.95562362670898,43.8022346496582,46.61781311035156,10.04,4.24,0.0,0.0,44.16713523864746,-3.2115116119384837,0.21739130434782608,ok,provisional_n24,True,N24-internal B5 method check only; not final AOI-wide modifier,0.25,-0.03260869565217392
TP_0542,12,overhead_as_canopy,n24_internal_b3,systemb_target_family_v0_1_b5,38.624794006347656,35.4910888671875,36.70577239990234,57.57993698120117,59.44976043701172,62.350494384765625,12.64,11.12,11.12,11.08,60.94166564941406,-3.3617286682128906,0.21739130434782608,ok,provisional_n24,True,N24-internal B5 method check only; not final AOI-wide modifier,0.25,-0.03260869565217392
TP_0542,13,overhead_as_canopy,n24_internal_b3,systemb_target_family_v0_1_b5,38.65592956542969,35.671958923339844,36.79190826416016,55.00983047485352,58.916603088378906,62.61772537231445,12.72,10.8,10.8,10.0,60.61849594116211,-5.608665466308587,0.21739130434782608,ok,provisional_n24,True,N24-internal B5 method check only; not final AOI-wide modifier,0.25,-0.03260869565217392
TP_0542,15,overhead_as_canopy,n24_internal_b3,systemb_target_family_v0_1_b5,37.49439239501953,35.48087310791016,35.97370147705078,39.20256423950195,56.30280685424805,60.84501266479492,9.16,7.84,7.84,6.48,57.903303146362305,-18.70073890686035,0.21739130434782608,ok,provisional_n24,True,N24-internal B5 method check only; not final AOI-wide modifier,0.25,-0.03260869565217392
TP_0542,16,overhead_as_canopy,n24_internal_b3,systemb_target_family_v0_1_b5,35.27682876586914,34.22052764892578,34.35417938232422,35.702274322509766,47.348541259765625,51.856224060058594,5.88,5.88,4.24,0.0,48.777780532836914,-13.075506210327148,0.21739130434782608,ok,provisional_n24,True,N24-internal B5 method check only; not final AOI-wide modifier,0.25,-0.03260869565217392
TP_0565,10,base,n24_internal_b3,systemb_target_family_v0_1_b5,43.79014205932617,44.912254333496094,46.351409912109375,46.43846893310547,46.466773986816406,46.51640701293945,88.24,46.32,0.0,0.0,44.96133995056152,1.4771289825439453,0.8695652173913043,ok,provisional_n24,True,N24-internal B5 method check only; not final AOI-wide modifier,0.875,-0.005434782608695676
TP_0565,12,base,n24_internal_b3,systemb_target_family_v0_1_b5,60.05807495117188,61.51402282714844,62.20302200317383,62.24494171142578,62.26586151123047,62.3170051574707,99.28,94.28,94.28,94.28,61.5889892578125,0.6559524536132812,0.8695652173913043,ok,provisional_n24,True,N24-internal B5 method check only; not final AOI-wide modifier,0.875,-0.005434782608695676
TP_0565,13,base,n24_internal_b3,systemb_target_family_v0_1_b5,60.10262680053711,61.291629791259766,62.38699722290039,62.45024108886719,62.48262023925781,62.53916549682617,99.76,95.52,95.52,95.52,61.46331977844238,0.9869213104248047,0.8695652173913043,ok,provisional_n24,True,N24-internal B5 method check only; not final AOI-wide modifier,0.875,-0.005434782608695676
TP_0565,15,base,n24_internal_b3,systemb_target_family_v0_1_b5,57.59669876098633,58.91078567504883,60.55488586425781,60.64634704589844,60.67668151855469,60.72161865234375,98.48,93.48,93.48,89.52,59.42742729187012,1.2189197540283203,0.8695652173913043,ok,provisional_n24,True,N24-internal B5 method check only; not final AOI-wide modifier,0.875,-0.005434782608695676
TP_0565,16,base,n24_internal_b3,systemb_target_family_v0_1_b5,48.6071891784668,49.7672004699707,51.55021667480469,51.646671295166016,51.67728805541992,51.722450256347656,90.28,90.16,40.88,0.0,50.2655029296875,1.3811683654785156,0.8695652173913043,ok,provisional_n24,True,N24-internal B5 method check only; not final AOI-wide modifier,0.875,-0.005434782608695676
TP_0565,10,overhead_as_canopy,n24_internal_b3,systemb_target_family_v0_1_b5,43.78419494628906,44.89437103271485,46.351409912109375,46.43846893310547,46.466773986816406,46.50859451293945,88.24,45.52,0.0,0.0,44.16713523864746,2.271333694458008,0.9130434782608695,ok,provisional_n24,True,N24-internal B5 method check only; not final AOI-wide modifier,0.9166666666666666,-0.0036231884057971175
TP_0565,12,overhead_as_canopy,n24_internal_b3,systemb_target_family_v0_1_b5,60.05384826660156,61.50541305541992,62.20302200317383,62.24494171142578,62.26586151123047,62.30677032470703,99.28,94.28,94.28,94.28,60.94166564941406,1.3032760620117188,0.9130434782608695,ok,provisional_n24,True,N24-internal B5 method check only; not final AOI-wide modifier,0.9166666666666666,-0.0036231884057971175
TP_0565,13,overhead_as_canopy,n24_internal_b3,systemb_target_family_v0_1_b5,60.09688568115234,61.27838134765625,62.38699722290039,62.45024108886719,62.48262023925781,62.520606994628906,99.76,95.52,95.52,95.52,60.61849594116211,1.8317451477050781,0.9130434782608695,ok,provisional_n24,True,N24-internal B5 method check only; not final AOI-wide modifier,0.9166666666666666,-0.0036231884057971175
TP_0565,15,overhead_as_canopy,n24_internal_b3,systemb_target_family_v0_1_b5,57.5889892578125,58.898536682128906,60.55488586425781,60.64634704589844,60.67668151855469,60.71427917480469,98.48,93.48,93.48,89.52,57.903303146362305,2.743043899536133,0.9130434782608695,ok,provisional_n24,True,N24-internal B5 method check only; not final AOI-wide modifier,0.9166666666666666,-0.0036231884057971175
TP_0565,16,overhead_as_canopy,n24_internal_b3,systemb_target_family_v0_1_b5,48.59959411621094,49.75413513183594,51.55021667480469,51.646671295166016,51.67728805541992,51.72011566162109,90.28,90.16,40.16,0.0,48.777780532836914,2.8688907623291016,0.9130434782608695,ok,provisional_n24,True,N24-internal B5 method check only; not final AOI-wide modifier,0.9166666666666666,-0.0036231884057971175
TP_0575,10,base,n24_internal_b3,systemb_target_family_v0_1_b5,44.13930130004883,45.58268737792969,45.94954681396485,46.03467178344727,46.058143615722656,46.11613464355469,88.72,68.92,0.0,0.0,44.96133995056152,1.0733318328857493,0.7391304347826086,ok,provisional_n24,True,N24-internal B5 method check only; not final AOI-wide modifier,0.75,-0.010869565217391353
TP_0575,12,base,n24_internal_b3,systemb_target_family_v0_1_b5,59.35875701904297,61.589473724365234,61.87078857421875,61.93106842041016,61.95115280151367,62.000370025634766,94.72,91.2,91.2,91.2,61.5889892578125,0.34207916259766336,0.7391304347826086,ok,provisional_n24,True,N24-internal B5 method check only; not final AOI-wide modifier,0.75,-0.010869565217391353
TP_0575,13,base,n24_internal_b3,systemb_target_family_v0_1_b5,59.44791793823242,61.64360809326172,61.99272918701172,62.07150268554688,62.09879302978516,62.158294677734375,95.68,91.52,91.52,91.52,61.46331977844238,0.6081829071044993,0.7391304347826086,ok,provisional_n24,True,N24-internal B5 method check only; not final AOI-wide modifier,0.75,-0.010869565217391353
TP_0575,15,base,n24_internal_b3,systemb_target_family_v0_1_b5,57.550575256347656,59.64694595336914,60.05707550048828,60.15033721923828,60.18310928344727,60.24355697631836,93.68,91.72,91.72,89.72,59.42742729187012,0.7229099273681641,0.7391304347826086,ok,provisional_n24,True,N24-internal B5 method check only; not final AOI-wide modifier,0.75,-0.010869565217391353
TP_0575,16,base,n24_internal_b3,systemb_target_family_v0_1_b5,49.06554412841797,50.64485549926758,51.060794830322266,51.15718078613281,51.1850814819336,51.25188827514648,90.96,90.8,69.19999999999999,0.0,50.2655029296875,0.8916778564453125,0.7391304347826086,ok,provisional_n24,True,N24-internal B5 method check only; not final AOI-wide modifier,0.75,-0.010869565217391353
TP_0575,10,overhead_as_canopy,n24_internal_b3,systemb_target_family_v0_1_b5,36.737552642822266,33.955894470214844,42.14024353027344,43.6960334777832,44.45736312866211,45.30972671508789,32.92,1.64,0.0,0.0,44.16713523864746,-0.4711017608642578,0.43478260869565216,ok,provisional_n24,True,N24-internal B5 method check only; not final AOI-wide modifier,0.4583333333333333,-0.023550724637681153
TP_0575,12,overhead_as_canopy,n24_internal_b3,systemb_target_family_v0_1_b5,47.159061431884766,40.49394989013672,58.094970703125,59.71934509277344,60.63970947265625,61.537841796875,58.24,42.08,42.08,42.08,60.94166564941406,-1.222320556640625,0.391304347826087,ok,provisional_n24,True,N24-internal B5 method check only; not final AOI-wide modifier,0.4166666666666667,-0.025362318840579712
TP_0575,13,overhead_as_canopy,n24_internal_b3,systemb_target_family_v0_1_b5,47.86001968383789,41.4420166015625,57.51016998291016,59.15083694458008,60.338958740234375,61.40499114990234,67.84,45.8,45.8,43.88,60.61849594116211,-1.4676589965820312,0.391304347826087,ok,provisional_n24,True,N24-internal B5 method check only; not final AOI-wide modifier,0.4166666666666667,-0.025362318840579712
TP_0575,15,overhead_as_canopy,n24_internal_b3,systemb_target_family_v0_1_b5,44.85420227050781,39.59217071533203,54.29121398925781,56.575931549072266,57.99043655395508,59.360477447509766,46.84,39.48,39.48,16.28,57.903303146362305,-1.327371597290039,0.391304347826087,ok,provisional_n24,True,N24-internal B5 method check only; not final AOI-wide modifier,0.4166666666666667,-0.025362318840579712
TP_0575,16,overhead_as_canopy,n24_internal_b3,systemb_target_family_v0_1_b5,39.8033447265625,36.63933563232422,45.65185546875,47.68716049194336,49.01500701904297,50.25974655151367,36.36,31.840000000000003,0.96,0.0,48.777780532836914,-1.0906200408935547,0.43478260869565216,ok,provisional_n24,True,N24-internal B5 method check only; not final AOI-wide modifier,0.4583333333333333,-0.023550724637681153
TP_0627,10,base,n24_internal_b3,systemb_target_family_v0_1_b5,40.66410446166992,44.239871978759766,45.272682189941406,45.73172378540039,45.89518737792969,46.177276611328125,64.60000000000001,39.44,0.0,0.0,44.96133995056152,0.7703838348388672,0.6956521739130435,ok,provisional_n24,True,N24-internal B5 method check only; not final AOI-wide modifier,0.7083333333333334,-0.012681159420289911
TP_0627,12,base,n24_internal_b3,systemb_target_family_v0_1_b5,58.829811096191406,61.383583068847656,61.64019393920898,61.87651824951172,61.99498748779297,62.149940490722656,99.72,89.0,89.0,89.0,61.5889892578125,0.28752899169921875,0.6956521739130435,ok,provisional_n24,True,N24-internal B5 method check only; not final AOI-wide modifier,0.7083333333333334,-0.012681159420289911
TP_0627,13,base,n24_internal_b3,systemb_target_family_v0_1_b5,59.25275039672852,61.01390838623047,61.54139709472656,61.889766693115234,62.04275131225586,62.26229476928711,99.72,94.32,94.32,94.32,61.46331977844238,0.42644691467285156,0.6956521739130435,ok,provisional_n24,True,N24-internal B5 method check only; not final AOI-wide modifier,0.7083333333333334,-0.012681159420289911
TP_0627,15,base,n24_internal_b3,systemb_target_family_v0_1_b5,54.92466354370117,58.83016204833984,59.62833023071289,60.03766250610352,60.163536071777344,60.41565704345703,91.32,82.6,82.6,74.76,59.42742729187012,0.6102352142334055,0.6956521739130435,ok,provisional_n24,True,N24-internal B5 method check only; not final AOI-wide modifier,0.7083333333333334,-0.012681159420289911
TP_0627,16,base,n24_internal_b3,systemb_target_family_v0_1_b5,45.93381881713867,49.65508270263672,50.53277206420898,50.97169494628906,51.113746643066406,51.3875732421875,74.64,73.32,44.68,0.0,50.2655029296875,0.7061920166015625,0.6956521739130435,ok,provisional_n24,True,N24-internal B5 method check only; not final AOI-wide modifier,0.7083333333333334,-0.012681159420289911
TP_0627,10,overhead_as_canopy,n24_internal_b3,systemb_target_family_v0_1_b5,40.66408920288086,44.239871978759766,45.272682189941406,45.73172378540039,45.89518737792969,46.177276611328125,64.60000000000001,39.44,0.0,0.0,44.16713523864746,1.5645885467529297,0.8260869565217391,ok,provisional_n24,True,N24-internal B5 method check only; not final AOI-wide modifier,0.8333333333333334,-0.007246376811594235
TP_0627,12,overhead_as_canopy,n24_internal_b3,systemb_target_family_v0_1_b5,58.82980728149414,61.383583068847656,61.64019393920898,61.87651824951172,61.99498748779297,62.149940490722656,99.72,89.0,89.0,89.0,60.94166564941406,0.9348526000976562,0.8260869565217391,ok,provisional_n24,True,N24-internal B5 method check only; not final AOI-wide modifier,0.8333333333333334,-0.007246376811594235
TP_0627,13,overhead_as_canopy,n24_internal_b3,systemb_target_family_v0_1_b5,59.25273895263672,61.01390838623047,61.54139709472656,61.889766693115234,62.04275131225586,62.26229476928711,99.72,94.32,94.32,94.32,60.61849594116211,1.271270751953125,0.8260869565217391,ok,provisional_n24,True,N24-internal B5 method check only; not final AOI-wide modifier,0.8333333333333334,-0.007246376811594235
TP_0627,15,overhead_as_canopy,n24_internal_b3,systemb_target_family_v0_1_b5,54.92464828491211,58.83016204833984,59.62833023071289,60.03467178344727,60.163536071777344,60.41565704345703,91.32,82.6,82.6,74.76,57.903303146362305,2.131368637084968,0.8260869565217391,ok,provisional_n24,True,N24-internal B5 method check only; not final AOI-wide modifier,0.8333333333333334,-0.007246376811594235
TP_0627,16,overhead_as_canopy,n24_internal_b3,systemb_target_family_v0_1_b5,45.93379974365234,49.65508270263672,50.53277206420898,50.966793060302734,51.113746643066406,51.3875732421875,74.64,73.32,44.68,0.0,48.777780532836914,2.1890125274658203,0.8260869565217391,ok,provisional_n24,True,N24-internal B5 method check only; not final AOI-wide modifier,0.8333333333333334,-0.007246376811594235
TP_0676,10,base,n24_internal_b3,systemb_target_family_v0_1_b5,36.950801849365234,33.6288948059082,42.200565338134766,44.87749481201172,46.0554313659668,46.59663391113281,36.16,8.4,0.0,0.0,44.96133995056152,-0.08384513854980469,0.4782608695652174,ok,provisional_n24,True,N24-internal B5 method check only; not final AOI-wide modifier,0.5,-0.021739130434782594
TP_0676,12,base,n24_internal_b3,systemb_target_family_v0_1_b5,49.41328811645508,56.93743896484375,60.27763366699219,61.46115493774414,62.02975845336914,62.32976150512695,62.84,52.92,52.92,52.92,61.5889892578125,-0.12783432006835938,0.4782608695652174,ok,provisional_n24,True,N24-internal B5 method check only; not final AOI-wide modifier,0.5,-0.021739130434782594
TP_0676,13,base,n24_internal_b3,systemb_target_family_v0_1_b5,49.67695236206055,56.75263977050781,58.89885711669922,61.38622283935547,62.210540771484375,62.60250473022461,65.0,55.720000000000006,55.67999999999999,55.44,61.46331977844238,-0.07709693908691406,0.4782608695652174,ok,provisional_n24,True,N24-internal B5 method check only; not final AOI-wide modifier,0.5,-0.021739130434782594
TP_0676,15,base,n24_internal_b3,systemb_target_family_v0_1_b5,46.6435546875,41.21854019165039,55.39109802246094,59.42240905761719,60.45937728881836,60.84262847900391,57.88,47.44,47.4,28.76,59.42742729187012,-0.0050182342529296875,0.4782608695652174,ok,provisional_n24,True,N24-internal B5 method check only; not final AOI-wide modifier,0.5,-0.021739130434782594
TP_0676,16,base,n24_internal_b3,systemb_target_family_v0_1_b5,40.20489883422852,36.5766487121582,45.90538787841797,50.25367736816406,51.41358947753906,51.85166549682617,38.0,34.08,12.08,0.0,50.2655029296875,-0.0118255615234375,0.4782608695652174,ok,provisional_n24,True,N24-internal B5 method check only; not final AOI-wide modifier,0.5,-0.021739130434782594
TP_0676,10,overhead_as_canopy,n24_internal_b3,systemb_target_family_v0_1_b5,36.451908111572266,33.467750549316406,41.76403427124024,44.87749481201172,46.0554313659668,46.59663391113281,31.44,8.4,0.0,0.0,44.16713523864746,0.7103595733642578,0.6086956521739131,ok,provisional_n24,True,N24-internal B5 method check only; not final AOI-wide modifier,0.625,-0.016304347826086918
TP_0676,12,overhead_as_canopy,n24_internal_b3,systemb_target_family_v0_1_b5,48.18342590332031,42.00438690185547,60.16908264160156,61.46115493774414,62.02975845336914,62.32976150512695,56.48,47.68,47.68,47.68,60.94166564941406,0.5194892883300781,0.5652173913043478,ok,provisional_n24,True,N24-internal B5 method check only; not final AOI-wide modifier,0.5833333333333334,-0.018115942028985588
TP_0676,13,overhead_as_canopy,n24_internal_b3,systemb_target_family_v0_1_b5,48.481971740722656,54.996826171875,58.7650032043457,61.38622283935547,62.210540771484375,62.60250473022461,58.64,50.56,50.52,50.0,60.61849594116211,0.7677268981933594,0.6086956521739131,ok,provisional_n24,True,N24-internal B5 method check only; not final AOI-wide modifier,0.625,-0.016304347826086918
TP_0676,15,overhead_as_canopy,n24_internal_b3,systemb_target_family_v0_1_b5,45.5583381652832,40.27106857299805,55.156036376953125,59.42240905761719,60.45937728881836,60.84262847900391,52.080000000000005,42.48,42.44,26.0,57.903303146362305,1.5191059112548828,0.6086956521739131,ok,provisional_n24,True,N24-internal B5 method check only; not final AOI-wide modifier,0.625,-0.016304347826086918
TP_0676,16,overhead_as_canopy,n24_internal_b3,systemb_target_family_v0_1_b5,39.49730682373047,36.00061798095703,45.51223373413086,50.25367736816406,51.41358947753906,51.85166549682617,33.08,26.96,12.08,0.0,48.777780532836914,1.4758968353271484,0.6086956521739131,ok,provisional_n24,True,N24-internal B5 method check only; not final AOI-wide modifier,0.625,-0.016304347826086918
TP_0773,10,base,n24_internal_b3,systemb_target_family_v0_1_b5,35.096160888671875,32.94391632080078,33.93756103515625,43.53472137451172,46.63153839111328,46.63153839111328,18.16,6.2,0.0,0.0,44.96133995056152,-1.4266185760498047,0.391304347826087,ok,provisional_n24,True,N24-internal B5 method check only; not final AOI-wide modifier,0.4166666666666667,-0.025362318840579712
TP_0773,12,base,n24_internal_b3,systemb_target_family_v0_1_b5,42.14907455444336,36.16899108886719,41.79146957397461,60.69436264038086,62.34486389160156,62.34486389160156,28.04,24.32,24.08,24.08,61.5889892578125,-0.8946266174316406,0.391304347826087,ok,provisional_n24,True,N24-internal B5 method check only; not final AOI-wide modifier,0.4166666666666667,-0.025362318840579712
TP_0773,13,base,n24_internal_b3,systemb_target_family_v0_1_b5,42.398529052734375,36.24467468261719,55.55597305297852,60.66888427734375,62.62262725830078,62.62262725830078,29.520000000000003,25.24,25.08,25.08,61.46331977844238,-0.7944355010986328,0.43478260869565216,ok,provisional_n24,True,N24-internal B5 method check only; not final AOI-wide modifier,0.4583333333333333,-0.023550724637681153
TP_0773,15,base,n24_internal_b3,systemb_target_family_v0_1_b5,41.34018325805664,36.00315856933594,41.0351791381836,57.8394775390625,60.86521911621094,60.86521911621094,26.040000000000003,24.2,24.2,20.76,59.42742729187012,-1.5879497528076172,0.391304347826087,ok,provisional_n24,True,N24-internal B5 method check only; not final AOI-wide modifier,0.4166666666666667,-0.025362318840579712
TP_0773,16,base,n24_internal_b3,systemb_target_family_v0_1_b5,37.91629409790039,34.557716369628906,37.097694396972656,48.59166717529297,51.878787994384766,51.878787994384766,23.0,22.6,6.2,0.0,50.2655029296875,-1.6738357543945312,0.391304347826087,ok,provisional_n24,True,N24-internal B5 method check only; not final AOI-wide modifier,0.4166666666666667,-0.025362318840579712
TP_0773,10,overhead_as_canopy,n24_internal_b3,systemb_target_family_v0_1_b5,35.07929992675781,32.94248962402344,33.91455841064453,43.33869552612305,46.63153839111328,46.63153839111328,18.16,6.2,0.0,0.0,44.16713523864746,-0.8284397125244141,0.391304347826087,ok,provisional_n24,True,N24-internal B5 method check only; not final AOI-wide modifier,0.4166666666666667,-0.025362318840579712
TP_0773,12,overhead_as_canopy,n24_internal_b3,systemb_target_family_v0_1_b5,42.10809326171875,36.15985107421875,41.69425964355469,60.44285202026367,62.34486389160156,62.34486389160156,27.72,24.32,24.08,24.08,60.94166564941406,-0.4988136291503906,0.43478260869565216,ok,provisional_n24,True,N24-internal B5 method check only; not final AOI-wide modifier,0.4583333333333333,-0.023550724637681153
TP_0773,13,overhead_as_canopy,n24_internal_b3,systemb_target_family_v0_1_b5,42.35115051269531,36.23060607910156,55.55913925170898,60.66888427734375,62.62262725830078,62.62262725830078,29.2,25.24,25.08,25.08,60.61849594116211,0.050388336181640625,0.5652173913043478,ok,provisional_n24,True,N24-internal B5 method check only; not final AOI-wide modifier,0.5833333333333334,-0.018115942028985588
TP_0773,15,overhead_as_canopy,n24_internal_b3,systemb_target_family_v0_1_b5,41.31755065917969,35.999969482421875,40.97722625732422,57.76166534423828,60.86521911621094,60.86521911621094,25.96,24.2,24.2,20.56,57.903303146362305,-0.14163780212402344,0.4782608695652174,ok,provisional_n24,True,N24-internal B5 method check only; not final AOI-wide modifier,0.5,-0.021739130434782594
TP_0773,16,overhead_as_canopy,n24_internal_b3,systemb_target_family_v0_1_b5,37.90126419067383,34.557716369628906,37.04573822021485,48.52738952636719,51.878787994384766,51.878787994384766,23.0,22.56,6.2,0.0,48.777780532836914,-0.25039100646972656,0.4782608695652174,ok,provisional_n24,True,N24-internal B5 method check only; not final AOI-wide modifier,0.5,-0.021739130434782594
TP_0835,10,base,n24_internal_b3,systemb_target_family_v0_1_b5,32.7736701965332,32.77602767944336,32.77736282348633,32.77862930297852,32.77884292602539,32.78053283691406,0.0,0.0,0.0,0.0,44.96133995056152,-12.182710647583,0.0,ok,provisional_n24,True,N24-internal B5 method check only; not final AOI-wide modifier,0.0416666666666666,-0.0416666666666666
TP_0835,12,base,n24_internal_b3,systemb_target_family_v0_1_b5,35.48797607421875,35.49116516113281,35.491798400878906,35.49324035644531,35.493492126464844,35.49665832519531,0.0,0.0,0.0,0.0,61.5889892578125,-26.095748901367188,0.0,ok,provisional_n24,True,N24-internal B5 method check only; not final AOI-wide modifier,0.0416666666666666,-0.0416666666666666
TP_0835,13,base,n24_internal_b3,systemb_target_family_v0_1_b5,35.59840774536133,35.602169036865234,35.60281753540039,35.60452651977539,35.604820251464844,35.63786315917969,0.0,0.0,0.0,0.0,61.46331977844238,-25.858793258666992,0.0,ok,provisional_n24,True,N24-internal B5 method check only; not final AOI-wide modifier,0.0416666666666666,-0.0416666666666666
TP_0835,15,base,n24_internal_b3,systemb_target_family_v0_1_b5,35.520782470703125,35.524375915527344,35.52627182006836,35.5282096862793,35.52853775024414,35.53129959106445,0.0,0.0,0.0,0.0,59.42742729187012,-23.89921760559082,0.0,ok,provisional_n24,True,N24-internal B5 method check only; not final AOI-wide modifier,0.0416666666666666,-0.0416666666666666
TP_0835,16,base,n24_internal_b3,systemb_target_family_v0_1_b5,34.296932220458984,34.29982376098633,34.301605224609375,34.30322265625,34.30349349975586,34.305545806884766,0.0,0.0,0.0,0.0,50.2655029296875,-15.9622802734375,0.0,ok,provisional_n24,True,N24-internal B5 method check only; not final AOI-wide modifier,0.0416666666666666,-0.0416666666666666
TP_0835,10,overhead_as_canopy,n24_internal_b3,systemb_target_family_v0_1_b5,32.7736701965332,32.77602767944336,32.77736282348633,32.77862930297852,32.77884292602539,32.78053283691406,0.0,0.0,0.0,0.0,44.16713523864746,-11.388505935668938,0.0,ok,provisional_n24,True,N24-internal B5 method check only; not final AOI-wide modifier,0.0416666666666666,-0.0416666666666666
TP_0835,12,overhead_as_canopy,n24_internal_b3,systemb_target_family_v0_1_b5,35.48797607421875,35.49116516113281,35.491798400878906,35.49324035644531,35.493492126464844,35.49665832519531,0.0,0.0,0.0,0.0,60.94166564941406,-25.44842529296875,0.0,ok,provisional_n24,True,N24-internal B5 method check only; not final AOI-wide modifier,0.0416666666666666,-0.0416666666666666
TP_0835,13,overhead_as_canopy,n24_internal_b3,systemb_target_family_v0_1_b5,35.59840774536133,35.602169036865234,35.60281753540039,35.60452651977539,35.604820251464844,35.63786315917969,0.0,0.0,0.0,0.0,60.61849594116211,-25.01396942138672,0.0,ok,provisional_n24,True,N24-internal B5 method check only; not final AOI-wide modifier,0.0416666666666666,-0.0416666666666666
TP_0835,15,overhead_as_canopy,n24_internal_b3,systemb_target_family_v0_1_b5,35.520782470703125,35.524375915527344,35.52627182006836,35.5282096862793,35.52853775024414,35.53129959106445,0.0,0.0,0.0,0.0,57.903303146362305,-22.375093460083008,0.0,ok,provisional_n24,True,N24-internal B5 method check only; not final AOI-wide modifier,0.0416666666666666,-0.0416666666666666
TP_0835,16,overhead_as_canopy,n24_internal_b3,systemb_target_family_v0_1_b5,34.296932220458984,34.29982376098633,34.301605224609375,34.30322265625,34.30349349975586,34.305545806884766,0.0,0.0,0.0,0.0,48.777780532836914,-14.474557876586914,0.0,ok,provisional_n24,True,N24-internal B5 method check only; not final AOI-wide modifier,0.0416666666666666,-0.0416666666666666
TP_0857,10,base,n24_internal_b3,systemb_target_family_v0_1_b5,33.516380310058594,32.85054016113281,33.01247024536133,33.4421501159668,42.923954010009766,44.07084655761719,5.96,0.0,0.0,0.0,44.96133995056152,-11.519189834594727,0.17391304347826086,ok,provisional_n24,True,N24-internal B5 method check only; not final AOI-wide modifier,0.2083333333333333,-0.03442028985507242
TP_0857,12,base,n24_internal_b3,systemb_target_family_v0_1_b5,37.63712310791016,36.177223205566406,36.81777191162109,38.09416961669922,58.0075798034668,61.47490692138672,5.800000000000001,5.800000000000001,5.800000000000001,5.800000000000001,61.5889892578125,-23.49481964111328,0.17391304347826086,ok,provisional_n24,True,N24-internal B5 method check only; not final AOI-wide modifier,0.2083333333333333,-0.03442028985507242
TP_0857,13,base,n24_internal_b3,systemb_target_family_v0_1_b5,37.3398323059082,36.39095306396485,37.18872833251953,38.12889099121094,38.42067337036133,60.01369857788086,3.88,3.8,3.8,3.8,61.46331977844238,-23.334428787231445,0.17391304347826086,ok,provisional_n24,True,N24-internal B5 method check only; not final AOI-wide modifier,0.2083333333333333,-0.03442028985507242
TP_0857,15,base,n24_internal_b3,systemb_target_family_v0_1_b5,36.15813446044922,35.6624641418457,36.000267028808594,36.73271942138672,37.19444274902344,56.04658126831055,2.16,2.12,2.12,1.24,59.42742729187012,-22.6947078704834,0.17391304347826086,ok,provisional_n24,True,N24-internal B5 method check only; not final AOI-wide modifier,0.2083333333333333,-0.03442028985507242
TP_0857,16,base,n24_internal_b3,systemb_target_family_v0_1_b5,34.499046325683594,34.183570861816406,34.375911712646484,34.749969482421875,34.956783294677734,47.49138259887695,2.08,2.08,0.0,0.0,50.2655029296875,-15.515533447265625,0.17391304347826086,ok,provisional_n24,True,N24-internal B5 method check only; not final AOI-wide modifier,0.2083333333333333,-0.03442028985507242
TP_0857,10,overhead_as_canopy,n24_internal_b3,systemb_target_family_v0_1_b5,33.51471710205078,32.85054016113281,33.012176513671875,33.435482025146484,42.856422424316406,44.07084655761719,5.96,0.0,0.0,0.0,44.16713523864746,-10.731653213500977,0.17391304347826086,ok,provisional_n24,True,N24-internal B5 method check only; not final AOI-wide modifier,0.2083333333333333,-0.03442028985507242
TP_0857,12,overhead_as_canopy,n24_internal_b3,systemb_target_family_v0_1_b5,37.6284294128418,36.17413330078125,36.793758392333984,38.06064224243164,57.982051849365234,61.47490692138672,5.800000000000001,5.800000000000001,5.800000000000001,5.800000000000001,60.94166564941406,-22.881023406982422,0.17391304347826086,ok,provisional_n24,True,N24-internal B5 method check only; not final AOI-wide modifier,0.2083333333333333,-0.03442028985507242
TP_0857,13,overhead_as_canopy,n24_internal_b3,systemb_target_family_v0_1_b5,37.32865524291992,36.36859130859375,37.17523193359375,38.1048583984375,38.35664749145508,60.01369857788086,3.88,3.8,3.8,3.8,60.61849594116211,-22.51363754272461,0.17391304347826086,ok,provisional_n24,True,N24-internal B5 method check only; not final AOI-wide modifier,0.2083333333333333,-0.03442028985507242
TP_0857,15,overhead_as_canopy,n24_internal_b3,systemb_target_family_v0_1_b5,36.1546745300293,35.6624641418457,35.99775695800781,36.71847152709961,37.18870162963867,56.04658126831055,2.16,2.12,2.12,1.2,57.903303146362305,-21.184831619262695,0.17391304347826086,ok,provisional_n24,True,N24-internal B5 method check only; not final AOI-wide modifier,0.2083333333333333,-0.03442028985507242
TP_0857,16,overhead_as_canopy,n24_internal_b3,systemb_target_family_v0_1_b5,34.49740219116211,34.182762145996094,34.37493133544922,34.749969482421875,34.956783294677734,47.49138259887695,2.08,2.08,0.0,0.0,48.777780532836914,-14.027811050415039,0.17391304347826086,ok,provisional_n24,True,N24-internal B5 method check only; not final AOI-wide modifier,0.2083333333333333,-0.03442028985507242
TP_0960,10,base,n24_internal_b3,systemb_target_family_v0_1_b5,43.39102935791016,45.129791259765625,45.54219055175781,45.67003631591797,45.728057861328125,46.42477416992188,85.32,54.6,0.0,0.0,44.96133995056152,0.7086963653564453,0.6521739130434783,ok,provisional_n24,True,N24-internal B5 method check only; not final AOI-wide modifier,0.6666666666666666,-0.01449275362318836
TP_0960,12,base,n24_internal_b3,systemb_target_family_v0_1_b5,59.45738220214844,61.40612030029297,61.7443962097168,61.8186149597168,61.86381912231445,62.21133804321289,97.2,92.04,92.04,92.04,61.5889892578125,0.22962570190429688,0.6086956521739131,ok,provisional_n24,True,N24-internal B5 method check only; not final AOI-wide modifier,0.625,-0.016304347826086918
TP_0960,13,base,n24_internal_b3,systemb_target_family_v0_1_b5,59.56269836425781,61.34152221679688,61.732177734375,61.81208419799805,61.85714340209961,62.42087173461914,97.68,92.84,92.84,92.84,61.46331977844238,0.34876441955566406,0.6521739130434783,ok,provisional_n24,True,N24-internal B5 method check only; not final AOI-wide modifier,0.6666666666666666,-0.01449275362318836
TP_0960,15,base,n24_internal_b3,systemb_target_family_v0_1_b5,57.54804992675781,59.38758850097656,59.7935676574707,59.9269905090332,59.97175598144531,60.64958953857422,95.88,92.44,92.44,91.12,59.42742729187012,0.49956321716308594,0.6521739130434783,ok,provisional_n24,True,N24-internal B5 method check only; not final AOI-wide modifier,0.6666666666666666,-0.01449275362318836
TP_0960,16,base,n24_internal_b3,systemb_target_family_v0_1_b5,48.85976791381836,50.257904052734375,50.69757843017578,50.86534118652344,50.91509628295898,51.65543365478516,91.88,91.48,59.6,0.0,50.2655029296875,0.5998382568359375,0.6521739130434783,ok,provisional_n24,True,N24-internal B5 method check only; not final AOI-wide modifier,0.6666666666666666,-0.01449275362318836
TP_0960,10,overhead_as_canopy,n24_internal_b3,systemb_target_family_v0_1_b5,43.22810745239258,44.97191619873047,45.40798568725586,45.54765319824219,45.5943603515625,46.42477416992188,84.88,48.76,0.0,0.0,44.16713523864746,1.3805179595947266,0.782608695652174,ok,provisional_n24,True,N24-internal B5 method check only; not final AOI-wide modifier,0.7916666666666666,-0.009057971014492683
TP_0960,12,overhead_as_canopy,n24_internal_b3,systemb_target_family_v0_1_b5,59.23351287841797,61.26004409790039,61.63417053222656,61.732120513916016,61.76615905761719,62.21133804321289,97.2,91.48,91.48,91.48,60.94166564941406,0.7904548645019531,0.7391304347826086,ok,provisional_n24,True,N24-internal B5 method check only; not final AOI-wide modifier,0.75,-0.010869565217391353
TP_0960,13,overhead_as_canopy,n24_internal_b3,systemb_target_family_v0_1_b5,59.28252029418945,61.12794494628906,61.60537338256836,61.72548675537109,61.768802642822266,62.42087173461914,97.68,92.16,92.16,92.16,60.61849594116211,1.1069908142089773,0.782608695652174,ok,provisional_n24,True,N24-internal B5 method check only; not final AOI-wide modifier,0.7916666666666666,-0.009057971014492683
TP_0960,15,overhead_as_canopy,n24_internal_b3,systemb_target_family_v0_1_b5,57.18424987792969,59.15551376342773,59.66665649414063,59.80796813964844,59.88085174560547,60.64958953857422,95.52,91.48,91.48,89.84,57.903303146362305,1.9046649932861328,0.782608695652174,ok,provisional_n24,True,N24-internal B5 method check only; not final AOI-wide modifier,0.7916666666666666,-0.009057971014492683
TP_0960,16,overhead_as_canopy,n24_internal_b3,systemb_target_family_v0_1_b5,48.53822326660156,50.07206344604492,50.57981491088867,50.73733139038086,50.81889343261719,51.65543365478516,90.64,90.2,52.88,0.0,48.777780532836914,1.9595508575439453,0.782608695652174,ok,provisional_n24,True,N24-internal B5 method check only; not final AOI-wide modifier,0.7916666666666666,-0.009057971014492683
TP_0986,10,base,n24_internal_b3,systemb_target_family_v0_1_b5,43.97382354736328,44.40742492675781,46.341156005859375,46.48641204833984,46.532527923583984,46.60483551025391,90.92,43.48,0.0,0.0,44.96133995056152,1.5250720977783132,0.9130434782608695,ok,provisional_n24,True,N24-internal B5 method check only; not final AOI-wide modifier,0.9166666666666666,-0.0036231884057971175
TP_0986,12,base,n24_internal_b3,systemb_target_family_v0_1_b5,60.978057861328125,61.103660583496094,62.14831161499024,62.30288696289063,62.333438873291016,62.359745025634766,100.0,99.56,99.56,99.56,61.5889892578125,0.7138977050781321,0.9565217391304348,ok,provisional_n24,True,N24-internal B5 method check only; not final AOI-wide modifier,0.9583333333333334,-0.0018115942028985588
TP_0986,13,base,n24_internal_b3,systemb_target_family_v0_1_b5,60.70177459716797,60.67108917236328,62.36227035522461,62.53352355957031,62.57070541381836,62.6117057800293,100.0,99.84,99.84,99.84,61.46331977844238,1.0702037811279297,0.9565217391304348,ok,provisional_n24,True,N24-internal B5 method check only; not final AOI-wide modifier,0.9583333333333334,-0.0018115942028985588
TP_0986,15,base,n24_internal_b3,systemb_target_family_v0_1_b5,57.46067428588867,58.24372863769531,60.62211990356445,60.719337463378906,60.76736831665039,60.82783508300781,100.0,92.72,92.72,86.32,59.42742729187012,1.291910171508789,0.9130434782608695,ok,provisional_n24,True,N24-internal B5 method check only; not final AOI-wide modifier,0.9166666666666666,-0.0036231884057971175
TP_0986,16,base,n24_internal_b3,systemb_target_family_v0_1_b5,48.39816284179688,49.1113510131836,51.611812591552734,51.716400146484375,51.76886749267578,51.836524963378906,87.96000000000001,87.2,43.04,0.0,50.2655029296875,1.450897216796875,0.9130434782608695,ok,provisional_n24,True,N24-internal B5 method check only; not final AOI-wide modifier,0.9166666666666666,-0.0036231884057971175
TP_0986,10,overhead_as_canopy,n24_internal_b3,systemb_target_family_v0_1_b5,43.97382354736328,44.40742492675781,46.341156005859375,46.48641204833984,46.532527923583984,46.60483551025391,90.92,43.48,0.0,0.0,44.16713523864746,2.3192768096923757,0.9565217391304348,ok,provisional_n24,True,N24-internal B5 method check only; not final AOI-wide modifier,0.9583333333333334,-0.0018115942028985588
TP_0986,12,overhead_as_canopy,n24_internal_b3,systemb_target_family_v0_1_b5,60.978057861328125,61.103660583496094,62.14831161499024,62.30288696289063,62.333438873291016,62.359745025634766,100.0,99.56,99.56,99.56,60.94166564941406,1.3612213134765696,0.9565217391304348,ok,provisional_n24,True,N24-internal B5 method check only; not final AOI-wide modifier,0.9583333333333334,-0.0018115942028985588
TP_0986,13,overhead_as_canopy,n24_internal_b3,systemb_target_family_v0_1_b5,60.70177459716797,60.67108917236328,62.36227035522461,62.53352355957031,62.57070541381836,62.6117057800293,100.0,99.84,99.84,99.84,60.61849594116211,1.9150276184082031,0.9565217391304348,ok,provisional_n24,True,N24-internal B5 method check only; not final AOI-wide modifier,0.9583333333333334,-0.0018115942028985588
TP_0986,15,overhead_as_canopy,n24_internal_b3,systemb_target_family_v0_1_b5,57.46067428588867,58.24372863769531,60.62211990356445,60.719337463378906,60.76736831665039,60.82783508300781,100.0,92.72,92.72,86.32,57.903303146362305,2.8160343170166016,0.9565217391304348,ok,provisional_n24,True,N24-internal B5 method check only; not final AOI-wide modifier,0.9583333333333334,-0.0018115942028985588
TP_0986,16,overhead_as_canopy,n24_internal_b3,systemb_target_family_v0_1_b5,48.39816284179688,49.1113510131836,51.611812591552734,51.716400146484375,51.76886749267578,51.836524963378906,87.96000000000001,87.2,43.04,0.0,48.777780532836914,2.938619613647461,0.9565217391304348,ok,provisional_n24,True,N24-internal B5 method check only; not final AOI-wide modifier,0.9583333333333334,-0.0018115942028985588
